earlchirchir/abb-crb-15000-kinematics/joint_trajectories.csv
Time,Joint1,Joint2,Joint3,Joint4,Joint5,Joint6
0,44.3167081732085,26.6718811050176,24.5699282059881,-5.30575755197791,-6.67652340504773,0
0.0015015015015015,44.3164497625279,26.6715293993638,24.5704188534161,-5.3057339565324,-6.6765260230018,0
0.003003003003003,44.315932936689,26.6708259916925,24.5714001401299,-5.30568676448772,-6.67653125841467,0
0.0045045045045045,44.3151576844972,26.6697708910954,24.5728720457744,-5.30561597295968,-6.67653911004828,0
0.00600600600600601,44.3141239880406,26.668364112118,24.5748345377819,-5.30552157733343,-6.67654957592211,0
0.00750750750750751,44.3128318226893,26.6666056747604,24.5772875713738,-5.3054035712633,-6.67656265331365,0
0.00900900900900901,44.3112811570943,26.6644956044763,24.5802310895614,-5.30526194667252,-6.67657833875917,0
0.0105105105105105,44.3094719531863,26.662033932172,24.5836650231486,-5.30509669375289,-6.67659662805461,0
0.012012012012012,44.307404166174,26.6592206942065,24.5875892907333,-5.30490780096438,-6.67661751625668,0
0.0135135135135135,44.3050777445421,26.6560559323899,24.5920037987108,-5.30469525503467,-6.67664099768421,0
0.015015015015015,44.3024926300494,26.6525396939825,24.5969084412768,-5.30445904095857,-6.6766670659196,0
0.0165165165165165,44.2996487577262,26.6486720316939,24.6023031004308,-5.30419914199743,-6.67669571381061,0
0.018018018018018,44.2965460558715,26.6444530036816,24.6081876459798,-5.30391553967842,-6.67672693347221,0
0.0195195195195195,44.2931844460498,26.6398826735494,24.6145619355434,-5.30360821379379,-6.67676071628871,0
0.021021021021021,44.2895638430882,26.634961110346,24.6214258145576,-5.30327714240004,-6.67679705291608,0
0.0225225225225225,44.2856841550725,26.6296883885636,24.6287791162806,-5.30292230181698,-6.67683593328442,0
0.024024024024024,44.2815452833433,26.6240645881357,24.636621661798,-5.30254366662676,-6.67687734660068,0
0.0255255255255255,44.2771471224917,26.6180897944355,24.6449532600288,-5.30214120967282,-6.67692128135154,0
0.027027027027027,44.2724895603553,26.6117640982736,24.6537737077318,-5.30171490205879,-6.67696772530654,0
0.0285285285285285,44.2675724780129,26.6050875958964,24.6630827895122,-5.30126471314723,-6.6770166655213,0
0.03003003003003,44.2623957497797,26.5980603889832,24.6728802778285,-5.30079061055839,-6.67706808834106,0
0.0315315315315315,44.256959243202,26.5906825846443,24.6831659330004,-5.30029256016887,-6.6771219794043,0
0.033033033033033,44.2512628190514,26.5829542954184,24.6939395032164,-5.29977052611019,-6.67717832364667,0
0.0345345345345345,44.245306331319,26.5748756392699,24.7052007245418,-5.2992244707673,-6.67723710530496,0
0.036036036036036,44.2390896272094,26.5664467395865,24.7169493209277,-5.298654354777,-6.67729830792143,0
0.0375375375375375,44.2326125471337,26.5576677251762,24.7291850042196,-5.2980601370263,-6.67736191434818,0
0.039039039039039,44.2258749247035,26.5485387302645,24.741907474167,-5.29744177465074,-6.67742790675182,0
0.0405405405405405,44.2188765867229,26.5390598944914,24.7551164184331,-5.29679922303253,-6.67749626661826,0
0.042042042042042,44.211617353182,26.5292313629082,24.7688115126045,-5.29613243579876,-6.67756697475771,0
0.0435435435435435,44.2040970372489,26.5190532859748,24.7829924202019,-5.2954413648194,-6.67764001130989,0
0.045045045045045,44.1963154452617,26.5085258195558,24.7976587926907,-5.29472596020534,-6.67771535574936,0
0.0465465465465465,44.1882723767205,26.4976491249177,24.8128102694922,-5.29398617030626,-6.67779298689109,0
0.048048048048048,44.179967624279,26.4864233687252,24.8284464779952,-5.29322194170846,-6.67787288289621,0
0.0495495495495495,44.1714009737353,26.4748487230379,24.844567033567,-5.29243321923266,-6.67795502127792,0
0.0510510510510511,44.1625722040233,26.4629253653066,24.8611715395665,-5.29161994593164,-6.67803937890757,0
0.0525525525525526,44.1534810872033,26.4506534783695,24.878259587356,-5.29078206308789,-6.67812593202093,0
0.0540540540540541,44.144127388452,26.4380332504491,24.8958307563139,-5.2899195102111,-6.67821465622467,0
0.0555555555555556,44.1345108660531,26.4250648751477,24.9138846138482,-5.28903222503564,-6.67830552650299,0
0.0570570570570571,44.1246312713869,26.4117485514441,24.9324207154094,-5.28812014351792,-6.67839851722437,0
0.0585585585585586,44.1144883489196,26.3980844836896,24.9514386045044,-5.28718319983371,-6.67849360214859,0
0.0600600600600601,44.1040818361929,26.3840728816038,24.9709378127103,-5.28622132637534,-6.67859075443387,0
0.0615615615615616,44.0934114638128,26.3697139602712,24.9909178596887,-5.28523445374888,-6.67868994664417,0
0.0630630630630631,44.0824769554383,26.3550079401368,25.0113782532005,-5.28422251077115,-6.67879115075668,0
0.0645645645645646,44.0712780277698,26.339955047002,25.0323184891201,-5.28318542446677,-6.67889433816946,0
0.0660660660660661,44.059814390537,26.3245555120207,25.0537380514512,-5.28212312006502,-6.6789994797093,0
0.0675675675675676,44.0480857464873,26.3088095716953,25.0756364123414,-5.2810355209967,-6.67910654563963,0
0.0690690690690691,44.0360917913727,26.2927174678724,25.0980130320984,-5.27992254889088,-6.67921550566871,0
0.0705705705705706,44.0238322139373,26.2762794477388,25.1208673592056,-5.27878412357156,-6.6793263289579,0
0.0720720720720721,44.0113066959044,26.2594957638173,25.1441988303382,-5.27762016305425,-6.67943898413014,0
0.0735735735735736,43.9985149119632,26.2423666739625,25.1680068703794,-5.27643058354253,-6.67955343927858,0
0.0750750750750751,43.985456529755,26.2248924413568,25.1922908924372,-5.27521529942441,-6.67966966197529,0
0.0765765765765766,43.9721312098596,26.207073334506,25.217050297861,-5.27397422326876,-6.67978761928025,0
0.0780780780780781,43.9585386057809,26.1889096272358,25.2422844762589,-5.27270726582149,-6.67990727775036,0
0.0795795795795796,43.9446783639329,26.1704015986868,25.2679928055143,-5.27141433600183,-6.68002860344873,0
0.0810810810810811,43.9305501236243,26.1515495333112,25.2941746518039,-5.27009534089835,-6.680151561954,0
0.0825825825825826,43.9161535170444,26.1323537208684,25.320829369615,-5.26875018576505,-6.68027611836986,0
0.0840840840840841,43.9014881692471,26.1128144564209,25.3479563017634,-5.26737877401724,-6.68040223733474,0
0.0855855855855856,43.8865536981358,26.0929320403307,25.3755547794112,-5.26598100722747,-6.68052988303157,0
0.0870870870870871,43.8713497144474,26.072706778255,25.4036241220848,-5.26455678512122,-6.68065901919775,0
0.0885885885885886,43.8558758217362,26.0521389811425,25.4321636376939,-5.26310600557265,-6.68078960913519,0
0.0900900900900901,43.8401316163578,26.0312289652297,25.4611726225487,-5.26162856460018,-6.68092161572059,0
0.0915915915915916,43.8241166874522,26.0099770520369,25.4906503613798,-5.26012435636201,-6.68105500141568,0
0.0930930930930931,43.8078306169269,25.9883835683649,25.5205961273559,-5.25859327315157,-6.6811897282778,0
0.0945945945945946,43.7912729794397,25.9664488462912,25.551009182103,-5.25703520539286,-6.68132575797044,0
0.0960960960960961,43.7744433423815,25.9441732231665,25.5818887757233,-5.25545004163572,-6.68146305177399,0
0.0975975975975976,43.7573412658583,25.9215570416114,25.6132341468144,-5.25383766855099,-6.68160157059658,0
0.0990990990990991,43.7399663026733,25.8986006495131,25.6450445224881,-5.25219797092563,-6.68174127498511,0
0.100600600600601,43.7223179983084,25.8753044000222,25.6773191183901,-5.25053083165771,-6.68188212513628,0
0.102102102102102,43.7043958909061,25.8516686515499,25.7100571387186,-5.24883613175133,-6.68202408090783,0
0.103603603603604,43.6861995112503,25.8276937677645,25.7432577762445,-5.24711375031144,-6.68216710182989,0
0.105105105105105,43.6677283827474,25.8033801175893,25.7769202123302,-5.2453635645386,-6.68231114711642,0
0.106606606606607,43.6489820214068,25.7787280751994,25.8110436169493,-5.24358544972364,-6.68245617567672,0
0.108108108108108,43.6299599358215,25.7537380200195,25.8456271487063,-5.2417792792422,-6.68260214612718,0
0.10960960960961,43.6106616271478,25.7284103367216,25.8806699548558,-5.23994492454921,-6.68274901680297,0
0.111111111111111,43.5910865890856,25.7027454152225,25.9161711713223,-5.23808225517329,-6.68289674576993,0
0.112612612612613,43.5712343078578,25.6767436506823,25.9521299227199,-5.23619113871105,-6.68304529083661,0
0.114114114114114,43.5511042621896,25.650405443502,25.9885453223714,-5.23427144082128,-6.68319460956626,0
0.115615615615616,43.5306959232873,25.6237311993223,26.0254164723285,-5.23232302521908,-6.68334465928906,0
0.117117117117117,43.5100087548177,25.5967213290222,26.0627424633908,-5.23034575366985,-6.68349539711434,0
0.118618618618619,43.4890422128861,25.5693762487174,26.1005223751257,-5.2283394859833,-6.68364677994302,0
0.12012012012012,43.4677957460145,25.5416963797596,26.1387552758878,-5.22630408000719,-6.68379876447995,0
0.121621621621622,43.4462687951203,25.5136821487356,26.1774402228382,-5.22423939162118,-6.68395130724654,0
0.123123123123123,43.4244607934932,25.4853339874669,26.2165762619638,-5.22214527473039,-6.68410436459334,0
0.124624624624625,43.4023711667733,25.4566523330092,26.2561624280969,-5.22002158125905,-6.68425789271273,0
0.126126126126126,43.379999332928,25.4276376276524,26.2961977449344,-5.21786816114391,-6.68441184765175,0
0.127627627627628,43.3573447022292,25.398290318921,26.3366812250565,-5.21568486232766,-6.68456618532492,0
0.129129129129129,43.3344066772299,25.3686108595742,26.377611869946,-5.21347153075216,-6.68472086152719,0
0.130630630630631,43.3111846527407,25.3385997076071,26.4189886700075,-5.2112280103517,-6.68487583194695,0
0.132132132132132,43.2876780158062,25.3082573262513,26.4608106045856,-5.20895414304603,-6.68503105217911,0
0.133633633633634,43.2638861456806,25.2775841839768,26.5030766419838,-5.20664976873339,-6.68518647773826,0
0.135135135135135,43.2398084138041,25.246580754493,26.545785739483,-5.20431472528341,-6.68534206407183,0
0.136636636636637,43.2154441837775,25.215247516751,26.5889368433601,-5.20194884852993,-6.68549776657344,0
0.138138138138138,43.1907928113383,25.1835849549462,26.6325288889054,-5.19955197226367,-6.68565354059618,0
0.13963963963964,43.1658536443352,25.1515935585203,26.6765608004415,-5.1971239282249,-6.68580934146601,0
0.141141141141141,43.1406260227031,25.1192738221647,26.7210314913405,-5.19466454609594,-6.68596512449521,0
0.142642642642643,43.1151092784375,25.0866262458237,26.7659398640416,-5.19217365349357,-6.68612084499591,0
0.144144144144144,43.0893027355689,25.0536513346985,26.8112848100687,-5.18965107596136,-6.68627645829356,0
0.145645645645646,43.0632057101367,25.0203495992506,26.8570652100475,-5.18709663696192,-6.68643191974063,0
0.147147147147147,43.0368175101634,24.9867215552071,26.9032799337223,-5.18451015786902,-6.68658718473016,0
0.148648648648649,43.0101374356277,24.9527677235648,26.9499278399727,-5.1818914579596,-6.68674220870949,0
0.15015015015015,42.9831647784383,24.9184886305962,26.9970077768299,-5.17924035440574,-6.68689694719397,0
0.151651651651652,42.9558988224069,24.8838848078545,27.044518581493,-5.17655666226649,-6.68705135578073,0
0.153153153153153,42.928338843221,24.8489567921804,27.0924590803448,-5.1738401944796,-6.68720539016244,0
0.154654654654655,42.9004841084168,24.8137051257081,27.1408280889672,-5.17109076185317,-6.68735900614119,0
0.156156156156156,42.8723338773515,24.7781303558727,27.1896244121564,-5.16830817305717,-6.6875121596423,0
0.157657657657658,42.8438874011759,24.7422330354174,27.2388468439382,-5.16549223461492,-6.68766480672821,0
0.159159159159159,42.815143922806,24.7060137224018,27.2884941675822,-5.16264275089441,-6.68781690361243,0
0.160660660660661,42.7861026768953,24.66947298021,27.3385651556161,-5.15975952409955,-6.68796840667338,0
0.162162162162162,42.756762889806,24.6326113775597,27.3890585698398,-5.15684235426131,-6.68811927246843,0
0.163663663663664,42.7271237795809,24.5954294885118,27.4399731613384,-5.15389103922878,-6.68826945774781,0
0.165165165165165,42.6971845559143,24.55792789248,27.4913076704963,-5.15090537466011,-6.68841891946859,0
0.166666666666667,42.666944420123,24.5201071742417,27.5430608270089,-5.14788515401335,-6.68856761480869,0
0.168168168168168,42.6364025651175,24.4819679239488,27.5952313498955,-5.1448301685372,-6.68871550118088,0
0.16966966966967,42.6055581753722,24.4435107371394,27.6478179475115,-5.14174020726169,-6.68886253624675,0
0.171171171171171,42.5744104268963,24.4047362147497,27.7008193175591,-5.13861505698867,-6.68900867793074,0
0.172672672672673,42.5429584872035,24.3656449631274,27.7542341470992,-5.13545450228232,-6.68915388443417,0
0.174174174174174,42.5112015152828,24.3262375940444,27.8080611125615,-5.13225832545944,-6.6892981142492,0
0.175675675675676,42.4791386615678,24.2865147247107,27.8622988797551,-5.12902630657975,-6.68944132617289,0
0.177177177177177,42.4467690679066,24.2464769777898,27.9169461038777,-5.12575822343603,-6.68958347932115,0
0.178678678678679,42.4140918675315,24.2061249814127,27.9720014295252,-5.12245385154415,-6.68972453314274,0
0.18018018018018,42.3811061850283,24.1654593691947,28.0274634907003,-5.11911296413304,-6.68986444743327,0
0.181681681681682,42.3478111363055,24.1244807802515,28.0833309108207,-5.11573533213453,-6.69000318234914,0
0.183183183183183,42.3142058285634,24.0831898592161,28.1396023027268,-5.11232072417314,-6.69014069842148,0
0.184684684684685,42.2802893602628,24.0415872562572,28.1962762686887,-5.10886890655568,-6.69027695657011,0
0.186186186186186,42.2460608210943,23.9996736270971,28.2533514004131,-5.10537964326087,-6.6904119181174,0
0.187687687687688,42.2115192919462,23.9574496330313,28.3108262790493,-5.10185269592874,-6.69054554480221,0
0.189189189189189,42.1766638448735,23.9149159409485,28.3686994751943,-5.09828782385005,-6.69067779879367,0
0.190690690690691,42.1414935430658,23.8720732233509,28.4269695488983,-5.09468478395549,-6.69080864270507,0
0.192192192192192,42.1060074408159,23.8289221583759,28.4856350496685,-5.09104333080491,-6.6909380396076,0
0.193693693693694,42.0702045834877,23.7854634298183,28.5446945164733,-5.08736321657635,-6.69106595304417,0
0.195195195195195,42.034084007484,23.741697727153,28.6041464777447,-5.08364419105505,-6.69119234704307,0
0.196696696696697,41.9976447402145,23.6976257455589,28.6639894513816,-5.07988600162227,-6.69131718613169,0
0.198198198198198,41.9608858000632,23.6532481859435,28.724221944751,-5.07608839324414,-6.69144043535015,0
0.1996996996997,41.9238061963566,23.6085657549679,28.7848424546895,-5.07225110846031,-6.69156206026487,0
0.201201201201201,41.8864049293305,23.5635791650733,28.8458494675036,-5.06837388737256,-6.69168202698218,0
0.202702702702703,41.8486809900979,23.5182891345081,28.9072414589696,-5.06445646763329,-6.69180030216176,0
0.204204204204204,41.810633360616,23.4726963873551,28.969016894333,-5.06049858443393,-6.69191685303012,0
0.205705705705706,41.7722610136534,23.4268016535612,29.0311742283066,-5.05649997049326,-6.69203164739398,0
0.207207207207207,41.7335629127576,23.380605668966,29.0937119050682,-5.05246035604565,-6.6921446536536,0
0.208708708708709,41.6945380122218,23.3341091753332,29.156628358258,-5.04837946882915,-6.69225584081608,0
0.21021021021021,41.6551852570518,23.2873129203812,29.2199220109746,-5.04425703407359,-6.69236517850855,0
0.211711711711712,41.615503582933,23.2402176578164,29.2835912757705,-5.04009277448849,-6.69247263699133,0
0.213213213213213,41.5754919161977,23.1928241473654,29.3476345546471,-5.03588641025094,-6.69257818717102,0
0.214714714714715,41.5351491737912,23.1451331548101,29.4120502390484,-5.03163765899339,-6.69268180061351,0
0.216216216216216,41.4944742632393,23.0971454520226,29.4768367098544,-5.02734623579134,-6.6927834495569,0
0.217717717717718,41.4534660826145,23.0488618170012,29.5419923373736,-5.02301185315094,-6.6928831069244,0
0.219219219219219,41.4121235205031,23.0002830339083,29.6075154813343,-5.01863422099652,-6.6929807463371,0
0.220720720720721,41.370445455972,22.9514098931075,29.6734044908759,-5.01421304665802,-6.69307634212669,0
0.222222222222222,41.3284307585352,22.902243191204,29.7396577045383,-5.00974803485838,-6.69316986934809,0
0.223723723723724,41.2860782881203,22.8527837310841,29.8062734502514,-5.00523888770079,-6.69326130379199,0
0.225225225225225,41.2433868950359,22.8030323219572,29.8732500453233,-5.00068530465589,-6.69335062199728,0
0.226726726726727,41.2003554199378,22.7529897793975,29.9405857964276,-4.99608698254894,-6.69343780126349,0
0.228228228228228,41.1569826937958,22.7026569253883,30.0082789995901,-4.99144361554679,-6.69352281966299,0
0.22972972972973,41.1132675378609,22.6520345883662,30.0763279401744,-4.98675489514493,-6.69360565605321,0
0.231231231231231,41.0692087636318,22.601123603267,30.1447308928666,-4.98202051015433,-6.69368629008874,0
0.232732732732733,41.0248051728218,22.5499248115726,30.2134861216589,-4.97724014668831,-6.69376470223326,0
0.234234234234234,40.9800555573259,22.4984390613592,30.2825918798331,-4.97241348814928,-6.69384087377148,0
0.235735735735736,40.9349586991879,22.4466672073465,30.352046409942,-4.96754021521543,-6.6939147868209,0
0.237237237237237,40.8895133705673,22.394610110948,30.4218479437909,-4.96262000582735,-6.69398642434346,0
0.238738738738739,40.8437183337066,22.3422686403229,30.4919947024172,-4.95765253517463,-6.69405577015714,0
0.24024024024024,40.7975723408988,22.2896436704291,30.5624848960699,-4.9526374756823,-6.69412280894737,0
0.241741741741742,40.7510741344546,22.2367360830768,30.6333167241875,-4.94757449699731,-6.69418752627842,0
0.243243243243243,40.7042224466699,22.1835467669847,30.7044883753754,-4.94246326597491,-6.69424990860457,0
0.244744744744745,40.657015999794,22.1300766178359,30.7759980273817,-4.93730344666496,-6.69430994328121,0
0.246246246246246,40.6094535059966,22.0763265383363,30.8478438470726,-4.9320947002982,-6.69436761857586,0
0.247747747747748,40.5615336673366,22.0222974382741,30.9200239904062,-4.92683668527252,-6.69442292367898,0
0.249249249249249,40.5132551757298,21.9679902345797,30.992536602406,-4.92152905713905,-6.69447584871472,0
0.250750750750751,40.4646167129175,21.9134058513885,31.0653798171326,-4.91617146858838,-6.69452638475149,0
0.252252252252252,40.4156169504349,21.8585452201037,31.1385517576547,-4.91076356943657,-6.69457452381246,0
0.253753753753754,40.3662545495798,21.8034092794611,31.212050536019,-4.90530500661126,-6.69462025888584,0
0.255255255255255,40.3165281613818,21.7479989755956,31.2858742532192,-4.89979542413761,-6.69466358393512,0
0.256756756756757,40.2664364265717,21.6923152621082,31.3600209991633,-4.89423446312434,-6.69470449390907,0
0.258258258258258,40.2159779755502,21.6363591001354,31.4344888526409,-4.88862176174964,-6.69474298475169,0
0.25975975975976,40.1651514283586,21.5801314584194,31.5092758812879,-4.88295695524708,-6.69477905341193,0
0.261261261261261,40.1139553946481,21.52363331338,31.5843801415516,-4.8772396758915,-6.69481269785335,0
0.262762762762763,40.0623884736507,21.4668656491885,31.6597996786534,-4.87146955298493,-6.69484391706352,0
0.264264264264264,40.0104492541491,21.409829457842,31.7355325265515,-4.86564621284234,-6.6948727110634,0
0.265765765765766,39.9581363144485,21.35252573924,31.8115767079012,-4.85976927877758,-6.69489908091642,0
0.267267267267267,39.9054482223473,21.2949555012628,31.8879302340151,-4.85383837108914,-6.69492302873752,0
0.268768768768769,39.8523835351089,21.2371197598506,31.9645911048219,-4.84785310704599,-6.69494455770197,0
0.27027027027027,39.7989407994338,21.179019539085,32.0415573088234,-4.84181310087342,-6.69496367205402,0
0.271771771771772,39.745118551432,21.1206558712716,32.1188268230507,-4.83571796373879,-6.69498037711542,0
0.273273273273273,39.6909153165959,21.0620297970244,32.1963976130197,-4.82956730373744,-6.69499467929374,0
0.274774774774775,39.6363296097734,21.0031423653521,32.2742676326848,-4.82336072587845,-6.6950065860905,0
0.276276276276276,39.5813599351415,20.9439946337454,32.352434824391,-4.81709783207054,-6.69501610610922,0
0.277777777777778,39.526004786181,20.8845876682668,32.4308971188259,-4.81077822110789,-6.69502324906312,0
0.279279279279279,39.4702626456506,20.8249225436415,32.5096524349694,-4.80440148865609,-6.69502802578284,0
0.280780780780781,39.4141319855622,20.7650003433502,32.5886986800426,-4.79796722723798,-6.69503044822379,0
0.282282282282282,39.3576112671567,20.704822159724,32.6680337494557,-4.79147502621967,-6.69503052947347,0
0.283783783783784,39.3006989408802,20.6443890940403,32.7476555267538,-4.78492447179649,-6.69502828375848,0
0.285285285285285,39.2433934463605,20.5837022566212,32.8275618835623,-4.77831514697907,-6.69502372645139,0
0.286786786786787,39.1856932123848,20.5227627669335,32.9077506795307,-4.77164663157935,-6.69501687407744,0
0.288288288288288,39.1275966568777,20.4615717536904,32.9882197622746,-4.7649185021968,-6.69500774432098,0
0.28978978978979,39.0691021868794,20.4001303549549,33.0689669673173,-4.75813033220457,-6.69499635603172,0
0.291291291291291,39.0102081985253,20.3384397182458,33.1499901180291,-4.75128169173577,-6.69498272923085,0
0.292792792792793,38.9509130770257,20.2765010006443,33.2312870255663,-4.74437214766981,-6.69496688511683,0
0.294294294294294,38.8912151966465,20.2143153689043,33.3128554888079,-4.73740126361883,-6.69494884607108,0
0.295795795795796,38.8311129206907,20.1518839995626,33.3946932942916,-4.73036859991419,-6.69492863566338,0
0.297297297297297,38.7706046014803,20.0892080790527,33.4767982161481,-4.72327371359307,-6.6949062786571,0
0.298798798798799,38.7096885803389,20.0262888038198,33.5591680160341,-4.71611615838519,-6.69488180101415,0
0.3003003003003,38.6483631875759,19.9631273804378,33.6418004430643,-4.70889548469959,-6.69485522989979,0
0.301801801801802,38.5866267424706,19.8997250257286,33.724693233741,-4.70161123961153,-6.69482659368715,0
0.303303303303303,38.5244775532574,19.8360829668832,33.807844111884,-4.69426296684958,-6.69479592196152,0
0.304804804804805,38.4619139171124,19.7722024415847,33.8912507885569,-4.68685020678273,-6.69476324552443,0
0.306306306306306,38.39893412014,19.7080846981343,33.9749109619944,-4.67937249640775,-6.69472859639752,0
0.307807807807808,38.3355364373615,19.6437309955778,34.0588223175259,-4.67182936933657,-6.69469200782606,0
0.309309309309309,38.2717191327032,19.5791426038357,34.1429825274994,-4.66422035578393,-6.69465351428239,0
0.310810810810811,38.2074804589874,19.514320803835,34.2273892512032,-4.65654498255513,-6.69461315146892,0
0.312312312312312,38.1428186579226,19.4492668876424,34.312040134786,-4.64880277303395,-6.69457095632108,0
0.313813813813814,38.0777319600957,19.3839821586008,34.3969328111761,-4.64099324717074,-6.69452696700985,0
0.315315315315315,38.0122185849653,19.3184679314674,34.4820648999989,-4.63311592147077,-6.69448122294411,0
0.316816816816817,37.9462767408559,19.252725532554,34.5674340074926,-4.62517030898266,-6.69443376477272,0
0.318318318318318,37.8799046249529,19.18675629987,34.653037726423,-4.61715591928712,-6.69438463438635,0
0.31981981981982,37.8131004232996,19.1205615832669,34.7388736359963,-4.60907225848582,-6.69433387491899,0
0.321321321321321,37.7458623107944,19.0541427445859,34.8249393017712,-4.60091882919061,-6.69428153074922,0
0.322822822822823,37.6781884511904,18.9875011578072,34.9112322755683,-4.59269513051279,-6.69422764750121,0
0.324324324324324,37.6100769970952,18.920638209202,34.9977500953792,-4.58440065805282,-6.69417227204543,0
0.325825825825826,37.5415260899726,18.8535552974868,35.0844902852734,-4.57603490389017,-6.69411545249909,0
0.327327327327327,37.4725338601455,18.7862538339798,35.1714503553039,-4.56759735657345,-6.69405723822622,0
0.328828828828829,37.4030984268002,18.7187352427601,35.2586278014112,-4.55908750111087,-6.6939976798376,0
0.33033033033033,37.3332178979923,18.6510009608287,35.3460201053262,-4.55050481896095,-6.69393682919023,0
0.331831831831832,37.2628903706536,18.5830524382728,35.4336247344707,-4.54184878802352,-6.69387473938662,0
0.333333333333333,37.1921139306008,18.5148911384321,35.5214391418573,-4.53311888263112,-6.69381146477373,0
0.334834834834835,37.1208866525461,18.4465185380669,35.6094607659872,-4.5243145735406,-6.6937470609416,0
0.336336336336336,37.0492066001085,18.3779361275302,35.6976870307467,-4.51543532792518,-6.69368158472168,0
0.337837837837838,36.9770718258276,18.3091454109408,35.786115345302,-4.50648060936678,-6.69361509418483,0
0.339339339339339,36.9044803711784,18.2401479063601,35.8747431039927,-4.49744987784877,-6.693547648639,0
0.340840840840841,36.8314302665884,18.1709451459707,35.9635676862234,-4.48834258974907,-6.6934793086266,0
0.342342342342342,36.7579195314559,18.1015386762577,36.0525864563543,-4.47915819783366,-6.69341013592155,0
0.343843843843844,36.6839461741702,18.0319300581932,36.1417967635892,-4.46989615125049,-6.69334019352596,0
0.345345345345345,36.6095081921342,17.9621208674224,36.2311959418635,-4.46055589552382,-6.69326954566646,0
0.346846846846847,36.534603571788,17.8921126944531,36.3207813097289,-4.45113687254901,-6.69319825779028,0
0.348348348348348,36.4592302886352,17.8219071448478,36.4105501702382,-4.44163852058772,-6.69312639656088,0
0.34984984984985,36.3833863072707,17.7515058394179,36.500499810827,-4.43206027426362,-6.6930540298533,0
0.351351351351351,36.3070695814106,17.6809104144214,36.590627503195,-4.4224015645586,-6.69298122674908,0
0.352852852852853,36.2302780539243,17.6101225217624,36.6809305031854,-4.41266181880944,-6.6929080575309,0
0.354354354354354,36.1530096568687,17.5391438291943,36.7714060506621,-4.40284046070498,-6.69283459367682,0
0.355855855855856,36.0752623115246,17.4679760205247,36.8620513693862,-4.39293691028391,-6.69276090785414,0
0.357357357357357,35.9970339284351,17.3966207958243,36.9528636668907,-4.38295058393305,-6.69268707391289,0
0.358858858858859,35.9183224074464,17.3250798716369,37.0438401343531,-4.37288089438619,-6.69261316687895,0
0.36036036036036,35.8391256377513,17.253354981194,37.1349779464672,-4.36272725072355,-6.69253926294681,0
0.361861861861862,35.7594414979342,17.1814478746309,37.2262742613127,-4.35248905837185,-6.69246543947187,0
0.363363363363363,35.6792678560197,17.1093603192064,37.3177262202236,-4.34216571910498,-6.69239177496242,0
0.364864864864865,35.5986025695225,17.0370940995245,37.4093309476548,-4.33175663104534,-6.69231834907121,0
0.366366366366366,35.5174434855007,16.9646510177598,37.5010855510474,-4.32126118866582,-6.69224524258657,0
0.367867867867868,35.4357884406115,16.8920328938854,37.5929871206924,-4.31067878279247,-6.69217253742315,0
0.369369369369369,35.3536352611693,16.8192415659036,37.6850327295921,-4.30000880060791,-6.69210031661231,0
0.370870870870871,35.2709817632067,16.7462788900795,37.7772194333213,-4.28925062565543,-6.69202866429194,0
0.372372372372372,35.1878257525385,16.6731467411777,37.8695442698859,-4.27840363784383,-6.69195766569606,0
0.373873873873874,35.1041650248281,16.5998470127015,37.9620042595799,-4.26746721345304,-6.69188740714379,0
0.375375375375375,35.0199973656574,16.5263816171358,38.0545964048419,-4.25644072514057,-6.69181797602803,0
0.376876876876877,34.9353205505987,16.4527524861916,38.1473176901087,-4.24532354194874,-6.69174946080367,0
0.378378378378378,34.8501323452909,16.378961571055,38.2401650816685,-4.23411502931269,-6.69168195097528,0
0.37987987987988,34.7644305055177,16.3050108426382,38.3331355275117,-4.22281454906939,-6.6916155370845,0
0.381381381381381,34.6782127772895,16.2309022918332,38.426225957181,-4.21142145946738,-6.69155031069681,0
0.382882882882883,34.5914768969287,16.1566379297695,38.5194332816191,-4.19993511517754,-6.69148636438798,0
0.384384384384384,34.5042205911577,16.0822197880739,38.6127543930158,-4.18835486730474,-6.69142379173,0
0.385885885885886,34.4164415771906,16.0076499191333,38.7061861646525,-4.17668006340043,-6.6913626872765,0
0.387387387387387,34.3281375628286,15.9329303963611,38.7997254507467,-4.16491004747624,-6.69130314654781,0
0.388888888888889,34.2393062465583,15.8580633144661,38.8933690862934,-4.15304416001864,-6.69124526601542,0
0.39039039039039,34.1499453176543,15.7830507897242,38.9871138869064,-4.14108173800451,-6.69118914308603,0
0.391891891891892,34.0600524562846,15.7078949602537,39.0809566486571,-4.12902211491794,-6.6911348760851,0
0.393393393393393,33.9696253336205,15.6325979862929,39.1748941479123,-4.11686462076794,-6.69108256423992,0
0.394894894894895,33.87866161195,15.5571620504812,39.2689231411712,-4.10460858210747,-6.69103230766212,0
0.396396396396396,33.7871589447948,15.4815893581429,39.3630403648995,-4.09225332205342,-6.69098420732976,0
0.397897897897898,33.6951149770315,15.4058821375739,39.4572425353634,-4.07979816030792,-6.69093836506884,0
0.399399399399399,33.6025273450173,15.330042640332,39.5515263484616,-4.06724241318082,-6.69089488353437,0
0.400900900900901,33.5093936767186,15.254073141529,39.6458884795562,-4.05458539361332,-6.69085386619086,0
0.402402402402402,33.4157115918451,15.1779759401269,39.7403255833018,-4.04182641120301,-6.69081541729231,0
0.403903903903904,33.321478701987,15.1017533592363,39.8348342934739,-4.0289647722301,-6.6907796418617,0
0.405405405405405,33.2266926107577,15.0254077464182,39.9294112227956,-4.01599977968506,-6.69074664566987,0
0.406906906906907,33.1313509139398,14.9489414739884,40.0240529627625,-4.00293073329755,-6.69071653521398,0
0.408408408408408,33.0354511996366,14.8723569393248,40.1187560834676,-3.9897569295668,-6.69068941769532,0
0.40990990990991,32.9389910484272,14.7956565651781,40.2135171334236,-3.9764776617934,-6.69066540099664,0
0.411411411411411,32.841968033527,14.7188427999846,40.3083326393848,-3.96309222011258,-6.69064459365889,0
0.412912912912913,32.7443797209531,14.6419181181824,40.4031991061674,-3.94959989152893,-6.69062710485745,0
0.414414414414414,32.6462236696934,14.5648850205302,40.4981130164685,-3.93599995995271,-6.69061304437775,0
0.415915915915916,32.5474974318824,14.4877460344292,40.5930708306847,-3.9222917062377,-6.69060252259038,0
0.417417417417417,32.44819855298,14.4105037142474,40.6880689867284,-3.90847440822068,-6.69059565042558,0
0.418918918918919,32.3483245719572,14.3331606416468,40.7831038998435,-3.89454734076249,-6.69059253934717,0
0.42042042042042,32.2478730214861,14.2557194259135,40.8781719624207,-3.88050977579084,-6.69059330132598,0
0.421921921921922,32.1468414281349,14.1781827042906,40.9732695438103,-3.86636098234481,-6.69059804881257,0
0.423423423423423,32.0452273125691,14.100553142313,41.0683929901355,-3.85210022662103,-6.69060689470946,0
0.424924924924925,31.9430281897579,14.022833434146,41.1635386241033,-3.83772677202178,-6.69061995234277,0
0.426426426426426,31.8402415691854,13.9450263029253,41.2587027448153,-3.82323987920485,-6.69063733543323,0
0.427927927927928,31.7368649550688,13.8671345011008,41.3538816275775,-3.80863880613519,-6.69065915806661,0
0.429429429429429,31.6328958465811,13.7891608107818,41.4490715237086,-3.79392280813866,-6.69068553466357,0
0.430930930930931,31.5283317380806,13.7111080440854,41.5442686603485,-3.77909113795751,-6.69071657994892,0
0.432432432432432,31.4231701193453,13.6329790434869,41.6394692402645,-3.76414304580804,-6.69075240892023,0
0.433933933933934,31.3174084758149,13.5547766821731,41.7346694416581,-3.74907777944013,-6.69079313681587,0
0.435435435435435,31.2110442888368,13.4765038643971,41.8298654179704,-3.73389458419898,-6.69083887908246,0
0.436936936936937,31.1040750359206,13.3981635258365,41.9250532976866,-3.71859270308885,-6.69088975134167,0
0.438438438438438,30.9964981909971,13.3197586339525,42.0202291841401,-3.70317137683902,-6.69094586935643,0
0.43993993993994,30.8883112246847,13.2412921883524,42.1153891553161,-3.68762984397195,-6.69100734899656,0
0.441441441441441,30.779511604562,13.1627672211535,42.2105292636546,-3.67196734087365,-6.69107430620371,0
0.442942942942943,30.6700967954474,13.0841867973488,42.3056455358522,-3.65618310186635,-6.69114685695574,0
0.444444444444444,30.5600642596844,13.0055540151757,42.4007339726643,-3.64027635928351,-6.6912251172305,0
0.445945945945946,30.4494114574353,12.9268720064853,42.4957905487066,-3.6242463435472,-6.69130920296894,0
0.447447447447447,30.3381358469802,12.8481439371144,42.5908112122557,-3.60809228324789,-6.69139923003763,0
0.448948948948949,30.2262348850242,12.7693730072588,42.6857918850502,-3.59181340522673,-6.69149531419069,0
0.45045045045045,30.1137060270111,12.6905624518486,42.7807284620908,-3.5754089346603,-6.69159757103105,0
0.451951951951952,30.0005467274445,12.6117155409246,42.8756168114403,-3.55887809514797,-6.69170611597112,0
0.453453453453453,29.8867544402163,12.5328355800166,42.9704527740242,-3.54222010880182,-6.69182106419286,0
0.454954954954955,29.7723266189424,12.4539259105227,43.0652321634301,-3.52543419633922,-6.69194253060723,0
0.456456456456456,29.6572607173061,12.3749899100904,43.1599507657074,-3.50851957717813,-6.692070629813,0
0.457957957957958,29.541554189409,12.2960309929979,43.2546043391677,-3.49147546953513,-6.69220547605499,0
0.459459459459459,29.4252044901299,12.2170526105379,43.3491886141844,-3.47430109052621,-6.69234718318164,0
0.460960960960961,29.3082090754911,12.1380582514009,43.4436992929926,-3.45699565627046,-6.69249586460211,0
0.462462462462462,29.1905654030328,12.0590514420603,43.5381320494899,-3.43955838199659,-6.69265163324259,0
0.463963963963964,29.0722709321957,11.9800357471578,43.6324825290365,-3.42198848215244,-6.69281460150217,0
0.465465465465465,28.9533231247113,11.9010147698898,43.7267463482565,-3.40428517051742,-6.69298488120804,0
0.466966966966967,28.833719445001,11.8219921523936,43.8209190948391,-3.38644766031802,-6.69316258357012,0
0.468468468468468,28.7134573605831,11.7429715761347,43.9149963273403,-3.36847516434638,-6.6933478191351,0
0.46996996996997,28.5925343424878,11.6639567622936,44.0089735749859,-3.35036689508198,-6.69354069773995,0
0.471471471471471,28.470947865682,11.5849514721533,44.102846337474,-3.33212206481654,-6.69374132846475,0
0.472972972972973,28.3486954095014,11.5059595074864,44.1966100847796,-3.31373988578213,-6.69394981958509,0
0.474474474474474,28.2257744580917,11.4269847109418,44.2902602569586,-3.2952195702825,-6.69416627852381,0
0.475975975975976,28.102182500859,11.3480309664315,44.3837922639538,-3.27656033082785,-6.69439081180224,0
0.477477477477477,27.9779170329287,11.2691021995162,44.4772014854017,-3.25776138027283,-6.69462352499089,0
0.478978978978979,27.8529755556134,11.1902023777909,44.57048327044,-3.23882193195809,-6.6948645226596,0
0.48048048048048,27.7273555768896,11.1113355112691,44.6636329375165,-3.21974119985517,-6.69511390832721,0
0.481981981981982,27.6010546118844,11.0325056527661,44.7566457741995,-3.200518398715,-6.69537178441064,0
0.483483483483483,27.4740701833705,10.9537168982811,44.8495170369895,-3.18115274421989,-6.69563825217353,0
0.484984984984985,27.3463998222712,10.8749733873777,44.9422419511318,-3.16164345313922,-6.6959134116744,0
0.486486486486487,27.2180410681742,10.796279303563,45.0348157104318,-3.14198974348864,-6.69619736171432,0
0.487987987987988,27.0889914698553,10.7176388746647,45.1272334770711,-3.12219083469311,-6.69649019978406,0
0.48948948948949,26.9592485858121,10.6390563732063,45.2194903814254,-3.10224594775361,-6.6967920220109,0
0.490990990990991,26.8288099848059,10.56053611678,45.3115815218851,-3.08215430541762,-6.69710292310494,0
0.492492492492492,26.6976732464151,10.4820824684171,45.4035019646768,-3.06191513235352,-6.69742299630498,0
0.493993993993994,26.5658359615972,10.4036998369557,45.4952467436881,-3.04152765532877,-6.69775233332406,0
0.495495495495495,26.433295733261,10.3253926774054,45.5868108602936,-3.02099110339208,-6.69809102429457,0
0.496996996996997,26.3000501768489,10.2471654913096,45.6781892831839,-3.0003047080595,-6.69843915771298,0
0.498498498498498,26.1660969209289,10.169022827103,45.7693769481969,-2.97946770350453,-6.69879682038431,0
0.5,26.0314336077969,10.0909692804669,45.8603687581518,-2.95847932675231,-6.69916409736614,0
0.501501501501502,25.8964632105974,10.0132429072122,45.9508877538696,-2.93740211281453,-6.69953994324615,0
0.503003003003003,25.7611861690065,9.93584542859376,46.0409330478312,-2.91623610672679,-6.6999243619984,0
0.504504504504504,25.6256029383002,9.85877857388257,46.1305037480127,-2.8949813584705,-6.70031735542271,0
0.506006006006006,25.489713989458,9.78204408022854,46.2195989579861,-2.87363792302454,-6.70071892315332,0
0.507507507507508,25.3535198092645,9.70564369252195,46.3082177770206,-2.85220586041666,-6.70112906266769,0
0.509009009009009,25.2170209004101,9.62957916325192,46.3963593001836,-2.83068523577469,-6.70154776929569,0
0.510510510510511,25.0802177815913,9.55385225236255,46.4840226184443,-2.80907611937748,-6.70197503622899,0
0.512012012012012,24.9431109876092,9.47846472710649,46.5712068187769,-2.78737858670556,-6.70241085453079,0
0.513513513513513,24.8057010694674,9.40341836189596,46.6579109842643,-2.76559271849164,-6.70285521314576,0
0.515015015015015,24.667988594468,9.32871493815129,46.7441341942037,-2.74371860077065,-6.70330809891034,0
0.516516516516517,24.5299741463074,9.25435624414692,46.8298755242124,-2.72175632492962,-6.7037694965633,0
0.518018018018018,24.3916583251701,9.18034407485484,46.9151340463336,-2.69970598775718,-6.70423938875662,0
0.519519519519519,24.2530417478217,9.10668023178549,46.9999088291448,-2.6775676914927,-6.70471775606666,0
0.521021021021021,24.1141250476999,9.03336652282607,47.0841989378649,-2.6553415438751,-6.70520457700565,0
0.522522522522523,23.9749088750052,8.96040476207637,47.1680034344638,-2.6330276581913,-6.7056998280335,0
0.524024024024024,23.8353938967893,8.887796769682,47.2513213777716,-2.61062615332426,-6.70620348356992,0
0.525525525525526,23.6955807970429,8.815544371665,47.3341518235893,-2.58813715380057,-6.70671551600686,0
0.527027027027027,23.5554702767807,8.74364939975201,47.4164938248,-2.56556078983769,-6.7072358957213,0
0.528528528528528,23.415063054127,8.67211369119978,47.4983464314807,-2.54289719739072,-6.70776459108837,0
0.53003003003003,23.2743598643977,8.60093908861814,47.5797086910149,-2.52014651819865,-6.70830156849476,0
0.531531531531532,23.133361460182,8.53012743979044,47.6605796482066,-2.49730889983018,-6.70884679235256,0
0.533033033033033,22.992068611422,8.45968059749142,47.7409583453942,-2.47438449572907,-6.70940022511337,0
0.534534534534535,22.8504821054911,8.38960041930251,47.8208438225652,-2.45137346525891,-6.70996182728276,0
0.536036036036036,22.70860274727,8.31988876742457,47.9002351174728,-2.42827597374734,-6.71053155743516,0
0.537537537537538,22.5664313592219,8.25054750848817,47.9791312657515,-2.40509219252981,-6.71110937222902,0
0.539039039039039,22.4239687814651,8.18157851336124,48.057531301035,-2.38182229899266,-6.71169522642234,0
0.540540540540541,22.2812158718445,8.11298365695422,48.1354342550736,-2.35846647661569,-6.71228907288865,0
0.542042042042042,22.1381735060008,8.04476481802276,48.2128391578535,-2.33502491501401,-6.7128908626332,0
0.543543543543544,21.9948425774382,7.97692387896782,48.2897450377157,-2.31149780997938,-6.71350054480969,0
0.545045045045045,21.8512239975899,7.9094627256333,48.3661509214763,-2.28788536352084,-6.71411806673725,0
0.546546546546547,21.707318695882,7.84238324710124,48.4420558345473,-2.26418778390464,-6.7147433739178,0
0.548048048048048,21.5631276197951,7.77568733548451,48.5174588010585,-2.24040528569353,-6.71537641005387,0
0.54954954954955,21.4186517349242,7.70937688571702,48.5923588439788,-2.2165380897853,-6.71601711706673,0
0.551051051051051,21.2738920250363,7.64345379534156,48.6667549852402,-2.19258642345063,-6.71666543511489,0
0.552552552552553,21.1288494921262,7.57791996429519,48.7406462458605,-2.16855052037018,-6.71732130261299,0
0.554054054054054,20.98352515647,7.51277729469219,48.814031646068,-2.14443062067087,-6.71798465625116,0
0.555555555555556,20.8379200566763,7.44802769060467,48.886910205426,-2.12022697096141,-6.71865543101461,0
0.557057057057057,20.6920352497357,7.38367305784086,48.9592809429586,-2.09593982436704,-6.71933356020373,0
0.558558558558559,20.5458718110678,7.31971530372096,49.0311428772768,-2.0715694405634,-6.72001897545451,0
0.56006006006006,20.3994308345657,7.25615633685076,49.1024950267052,-2.04711608580954,-6.72071160675938,0
0.561561561561562,20.2527134326388,7.19299806689295,49.173336409409,-2.02258003298017,-6.72141138248844,0
0.563063063063063,20.1057207362525,7.13024240433612,49.2436660435228,-1.99796156159685,-6.72211822941101,0
0.564564564564565,19.9584538949664,7.06789126026162,49.313482947278,-1.97326095785845,-6.72283207271769,0
0.566066066066066,19.8109140769696,7.00594654610811,49.3827861391329,-1.94847851467054,-6.7235528360427,0
0.567567567567568,19.6631024691136,6.94441017343401,49.4515746379016,-1.92361453167397,-6.72428044148665,0
0.569069069069069,19.5150202769426,6.88328405367776,49.5198474628845,-1.89866931527232,-6.7250148096397,0
0.570570570570571,19.3666687247221,6.822570097916,49.5876036339991,-1.87364317865856,-6.7257558596051,0
0.572072072072072,19.2180490554637,6.7622702166196,49.6548421719108,-1.84853644184052,-6.72650350902311,0
0.573573573573574,19.0691625309486,6.70238631940775,49.7215620981649,-1.82334943166549,-6.72725767409532,0
0.575075075075075,18.9200104317476,6.64292031479997,49.7877624353184,-1.79808248184365,-6.72801826960933,0
0.576576576576577,18.7705940572388,6.58387410996617,49.8534422070733,-1.77273593297055,-6.72878520896383,0
0.578078078078078,18.6209147256231,6.52524961047478,49.9186004384087,-1.74731013254847,-6.72955840419404,0
0.57957957957958,18.4709737739361,6.46704872003895,49.9832361557151,-1.7218054350066,-6.73033776599757,0
0.581081081081081,18.3207725580577,6.40927334026102,50.0473483869275,-1.69622220172026,-6.73112320376057,0
0.582582582582583,18.1703124527195,6.35192537037499,50.1109361616605,-1.67056080102888,-6.73191462558435,0
0.584084084084084,18.0195948515087,6.29500670698745,50.1739985113422,-1.64482160825281,-6.73271193831232,0
0.585585585585586,17.8686211668693,6.23851924381663,50.2365344693493,-1.61900500570905,-6.73351504755726,0
0.587087087087087,17.7173928301005,6.18246487142983,50.2985430711428,-1.59311138272572,-6.73432385772902,0
0.588588588588589,17.5659112913529,6.12684547697927,50.3600233544031,-1.56714113565533,-6.73513827206255,0
0.59009009009009,17.4141780196207,6.07166294393629,50.4209743591659,-1.54109466788688,-6.73595819264628,0
0.591591591591592,17.2621945027316,6.01691915182411,50.4813951279589,-1.51497238985663,-6.73678352045083,0
0.593093093093093,17.1099622473339,5.96261597594909,50.5412847059373,-1.4887747190577,-6.73761415535811,0
0.594594594594595,16.9574827788804,5.90875528713056,50.6006421410211,-1.46250208004833,-6.73844999619076,0
0.596096096096096,16.8047576416089,5.8553389514293,50.6594664840315,-1.43615490445891,-6.73929094074184,0
0.597597597597598,16.6517883985208,5.80236882987475,50.717756788828,-1.40973363099764,-6.74013688580499,0
0.599099099099099,16.4985766313555,5.74984677819091,50.7755121124455,-1.38323870545493,-6.74098772720478,0
0.600600600600601,16.3451239405619,5.69777464652111,50.8327315152314,-1.35667058070637,-6.7418433598275,0
0.602102102102102,16.1914319452681,5.64615427915165,50.8894140609833,-1.33002971671451,-6.74270367765213,0
0.603603603603604,16.037502283246,5.59498751423432,50.945558817086,-1.30331658052905,-6.74356857378176,0
0.605105105105105,15.8833366108743,5.54427618350797,51.0011648546489,-1.27653164628588,-6.74443794047519,0
0.606606606606607,15.7289366030978,5.49402211201913,51.0562312486439,-1.24967539520452,-6.7453116691789,0
0.608108108108108,15.5743039533831,5.44422711784173,51.1107570780428,-1.22274831558432,-6.74618965055927,0
0.60960960960961,15.4194403736725,5.39489301179603,51.1647414259543,-1.19575090279908,-6.74707177453511,0
0.611111111111111,15.2643475943328,5.34602159716683,51.2181833797619,-1.16868365929041,-6.74795793031039,0
0.612612612612613,15.1090273641023,5.2976146694209,51.2710820312612,-1.14154709455943,-6.74884800640736,0
0.614114114114114,14.9534814500343,5.24967401592398,51.3234364767966,-1.11434172515724,-6.74974189069976,0
0.615615615615616,14.7977116374367,5.20220141565709,51.3752458173991,-1.08706807467371,-6.75063947044645,0
0.617117117117117,14.6417197298092,5.15519863893244,51.4265091589228,-1.05972667372492,-6.75154063232512,0
0.618618618618619,14.4855075487766,5.10866744710893,51.4772256121814,-1.03231805993907,-6.75244526246638,0
0.62012012012012,14.3290769340192,5.06260959230736,51.5273942930854,-1.00484277794087,-6.75335324648792,0
0.621621621621622,14.1724297431994,5.01702681712538,51.5770143227777,-0.977301379334385,-6.754264469529,0
0.623123123123123,14.015567851886,4.97192085435223,51.62608482777,-0.949694422684474,-6.75517881628508,0
0.624624624624625,13.8584931534736,4.92729342668348,51.6746049400782,-0.922022473496551,-6.75609617104268,0
0.626126126126126,13.7012075591004,4.88314624643565,51.7225737973579,-0.894286104194904,-6.75701641771436,0
0.627627627627628,13.5437129975614,4.83948101526096,51.7699905430394,-0.866485894099422,-6.75793943987392,0
0.629129129129129,13.3860114152188,4.79629942386222,51.816854326462,-0.838622429400779,-6.75886512079177,0
0.630630630630631,13.2281047759089,4.7536031517079,51.8631643030084,-0.810696303134054,-6.75979334347043,0
0.632132132132132,13.0699950608459,4.71139386674752,51.9089196342386,-0.78270811515078,-6.76072399068012,0
0.633633633633634,12.9116842685221,4.66967322512745,51.9541194880224,-0.754658472089414,-6.76165694499458,0
0.635135135135135,12.7531744146045,4.62844287090714,51.9987630386728,-0.72654798734424,-6.76259208882691,0
0.636636636636637,12.5944675318288,4.58770443577591,52.0428494670777,-0.698377281032673,-6.76352930446559,0
0.638138138138138,12.4355656698893,4.54745953877038,52.0863779608316,-0.670146979960983,-6.76446847411052,0
0.63963963963964,12.276470895326,4.50770978599256,52.1293477143664,-0.641857717588425,-6.7654094799092,0
0.641141141141141,12.1171852914076,4.46845677032886,52.171757929082,-0.613510133989775,-6.76635220399293,0
0.642642642642643,11.9577109580122,4.42970207116983,52.2136078134755,-0.585104875816271,-6.76729652851314,0
0.644144144144144,11.7980500115038,4.391447254131,52.2548965832702,-0.556642596254952,-6.76824233567764,0
0.645645645645646,11.638204584606,4.3536938707747,52.2956234615441,-0.528123954986402,-6.76918950778704,0
0.647147147147147,11.4781768262716,4.31644345833301,52.3357876788566,-0.499549618140893,-6.77013792727108,0
0.648648648648649,11.3179689015501,4.27969753943205,52.3753884733757,-0.470920258252931,-6.77108747672501,0
0.65015015015015,11.1575829914508,4.24345762181743,52.4144250910035,-0.442236554214201,-6.77203803894596,0
0.651651651651652,10.9970212928031,4.20772519808122,52.4528967855009,-0.413499191224921,-6.7729894969693,0
0.653153153153153,10.8362860181134,4.17250174539035,52.4908028186118,-0.384708860743597,-6.77394173410491,0
0.654654654654655,10.6753793954187,4.13778872521662,52.5281424601859,-0.355866260435195,-6.77489463397346,0
0.656156156156156,10.5143036681372,4.10358758306837,52.5649149883007,-0.326972094117715,-6.7758480805426,0
0.657657657657658,10.353061094915,4.06989974822384,52.6011196893831,-0.298027071707193,-6.77680195816308,0
0.659159159159159,10.1916539494704,4.03672663346654,52.6367558583284,-0.269031909161121,-6.77775615160476,0
0.660660660660661,10.0300845204345,4.00406963482235,52.6718227986203,-0.239987328420297,-6.77871054609254,0
0.662162162162162,9.86835511118855,3.97193013129875,52.7063198224479,-0.210894057349106,-6.77966502734217,0
0.663663663663664,9.70646803969846,3.94030948462614,52.740246250823,-0.181752829674246,-6.7806194815959,0
0.665165165165165,9.54442563834581,3.90920903900137,52.7736014136951,-0.152564384921905,-6.781573795658,0
0.666666666666667,9.38223025375597,3.87863012083351,52.8063846500663,-0.123329468353393,-6.78252785693014,0
0.668168168168168,9.21988424662304,3.84857403849201,52.8385953081041,-0.0940488308992421,-6.78348155344653,0
0.66966966966967,9.05738999153172,3.81904208205735,52.870232745253,-0.0647232290917835,-6.78443477390893,0
0.671171171171171,8.89474987677605,3.79003552307415,52.9012963283457,-0.0353534249962139,-6.78538740772145,0
0.672672672672673,8.73196630417526,3.76155561430705,52.9317854337118,-0.00594018614015885,-6.78633934502509,0
0.674174174174174,8.56904168888649,3.73360358949914,52.9616994472859,0.0235157145582525,-6.78729047673206,0
0.675675675675676,8.40597845921463,3.70618066313332,52.9910377647142,0.0530134988637884,-6.78824069455988,0
0.677177177177177,8.24277905641917,3.6792880301965,53.0197997914593,0.08255238329898,-6.7891898910652,0
0.678678678678679,8.0794459345182,3.65292686594676,53.0479849429041,0.112131579220435,-6.7901379596773,0
0.68018018018018,7.91598156008944,3.6270983256836,53.0755926444535,0.141750292896586,-6.7910847947314,0
0.681681681681682,7.75238841206856,3.6018035445213,53.1026223316359,0.171407725586857,-6.79203029150152,0
0.683183183183183,7.58866898154458,3.57704363716555,53.1290734502014,0.201103073622238,-6.79297434623316,0
0.684684684684685,7.42482577155259,3.5528196976933,53.1549454562197,0.230835528487235,-6.79391685617555,0
0.686186186186186,7.26086129686369,3.5291327993361,53.1802378161763,0.260604276903202,-6.79485771961358,0
0.687687687687688,7.09677808377224,3.50598399426679,53.2049500070665,0.290408500913014,-6.7957968358994,0
0.689189189189189,6.93257866988051,3.48337431338988,53.2290815164879,0.320247377967077,-6.79673410548356,0
0.690690690690691,6.76826560388066,3.46130476613541,53.2526318427319,0.350120081010647,-6.79766942994584,0
0.692192192192192,6.6038414453342,3.43977634025659,53.2756004948724,0.380025778572445,-6.79860271202566,0
0.693693693693694,6.4393087644489,3.41879000163122,53.2979869928539,0.409963634854544,-6.79953385565198,0
0.695195195195195,6.27467014185323,3.39834669406692,53.3197908675767,0.4399328098235,-6.80046276597294,0
0.696696696696697,6.10992816836837,3.37844733911034,53.3410116609813,0.469932459302722,-6.80138934938485,0
0.698198198198198,5.94508544477782,3.35909283586031,53.3616489261301,0.499961735066039,-6.8023135135609,0
0.6996996996997,5.78014458159472,3.34028406078512,53.3817022272883,0.530019784932453,-6.80323516747929,0
0.701201201201201,5.61510819882676,3.32202186754388,53.4011711400019,0.560105752862053,-6.8041542214509,0
0.702702702702703,5.44997892573903,3.30430708681218,53.4200552511743,0.590218779053059,-6.80507058714646,0
0.704204204204204,5.28475940061447,3.2871405261119,53.4383541591411,0.620358000039981,-6.80598417762324,0
0.705705705705706,5.11945227051238,3.27052296964552,53.4560674737426,0.650522548792855,-6.80689490735116,0
0.707207207207207,4.95406019102467,3.25445517813467,53.4731948163946,0.680711554817546,-6.8078026922384,0
0.708708708708709,4.78858582603022,3.23893788866332,53.4897358201572,0.71092414425707,-6.80870744965649,0
0.71021021021021,4.62303184744713,3.22397181452538,53.5056901298015,0.741159439993935,-6.80960909846474,0
0.711711711711712,4.45740093498317,3.20955764507692,53.5210574018739,0.771416561753444,-6.81050755903423,0
0.713213213213213,4.29169577588422,3.19569604559308,53.5358373047596,0.801694626207955,-6.81140275327111,0
0.714714714714715,4.12591906468106,3.18238765712971,53.5500295187423,0.831992747082056,-6.81229460463937,0
0.716216216216216,3.96007350293424,3.16963309638967,53.5636337360632,0.862310035258631,-6.81318303818298,0
0.717717717717718,3.79416179897736,3.15743295559401,53.5766496609772,0.89264559888579,-6.81406798054742,0
0.719219219219219,3.62818666765869,3.14578780235807,53.589077009807,0.92299854348462,-6.81494936000058,0
0.720720720720721,3.46215083008118,3.13469817957242,53.6009155109954,0.953367972057745,-6.81582710645303,0
0.722222222222222,3.29605701334094,3.12416460528879,53.6121649051553,0.983752985198651,-6.81670115147767,0
0.723723723723724,3.12990795026438,3.11418757261102,53.6228249451172,1.01415268120174,-6.81757142832868,0
0.725225225225225,2.96370637914374,3.10476754959108,53.6328953959749,1.04456615617312,-6.81843787195982,0
0.726726726726727,2.79745504347153,3.09590497913012,53.6423760351287,1.07499250414199,-6.81930041904212,0
0.728228228228228,2.63115669167347,3.08760027888479,53.6512666523268,1.1054308171728,-6.82015900798078,0
0.72972972972973,2.46481407684039,3.0798538411786,53.6595670497037,1.13588018547786,-6.82101357893148,0
0.731231231231231,2.29842995645893,3.07266603291858,53.6672770418175,1.16633969753065,-6.82186407381596,0
0.732732732732733,2.13200709214109,3.06603719551715,53.6743964556837,1.19680844017961,-6.82271043633688,0
0.734234234234234,1.96554824935288,3.05996764481925,53.6809251308073,1.22728549876242,-6.82355261199199,0
0.735735735735736,1.79905619714196,3.05445767103488,53.686862919213,1.25776995722083,-6.82439054808759,0
0.737237237237237,1.63253370786439,3.04950753867682,53.6922096854724,1.28826089821584,-6.82522419375125,0
0.738738738738739,1.46598355691057,3.04511748650382,53.6969653067292,1.31875740324333,-6.82605349994382,0
0.74024024024024,1.29940852243045,3.0412877274692,53.7011296727222,1.34925855275004,-6.82687841947069,0
0.741741741741742,1.13281138505804,3.03801844867477,53.7047026858057,1.37976342624993,-6.82769890699233,0
0.743243243243243,0.966194927635292,3.03530981133019,53.7076842609679,1.41027110244075,-6.82851491903408,0
0.744744744744745,0.799561934935433,3.03316195071785,53.7100743258469,1.44078065932095,-6.82932641399515,0
0.746246246246246,0.632915193385855,3.03157497616313,53.7118728207438,1.4712911743068,-6.83013335215699,0
0.747747747747748,0.466257490790541,3.03054897101013,53.7130796986342,1.50180172434966,-6.83093569569072,0
0.749249249249249,0.299591616052176,3.03008399260297,53.7136949251774,1.53231138605344,-6.831733408664,0
0.750750750750751,0.132920358893971,3.03018007227248,53.7137184787221,1.56281923579222,-6.832526457047,0
0.752252252252252,-0.0337534904187216,3.0308372153284,53.7131503503115,1.59332434982784,-6.83331480871763,0
0.753753753753754,-0.200427141356931,3.03205540105713,53.7119905436842,1.62382580442766,-6.83409843346609,0
0.755255255255255,-0.367097803406662,3.03383458272493,53.7102390752744,1.65432267598225,-6.83487730299854,0
0.756756756756757,-0.533762686347489,3.03617468758664,53.7078959742084,1.68481404112308,-6.83565139094005,0
0.758258258258258,-0.700419000531092,3.0390756168999,53.7049612822998,1.71529897684015,-6.83642067283683,0
0.75975975975976,-0.867063957159649,3.04253724594483,53.7014350540416,1.74577656059955,-6.83718512615761,0
0.761261261261261,-1.03369476856403,3.04655942404923,53.6973173565962,1.77624587046083,-6.83794473029429,0
0.762762762762763,-1.20030864848172,3.05114197461921,53.6926082697833,1.80670598519422,-6.83869946656182,0
0.764264264264264,-1.3669028123344,3.05628469517533,53.6873078860652,1.83715598439771,-6.83944931819732,0
0.765765765765766,-1.5334744775051,3.0619873573941,53.6814163105296,1.86759494861376,-6.84019427035844,0
0.767267267267267,-1.70002086361494,3.06824970715506,53.6749336608703,1.89802195944588,-6.84093431012089,0
0.768768768768769,-1.86653919279921,3.07507146459309,53.6678600673659,1.92843609967477,-6.84166942647531,0
0.77027027027027,-2.03302668998298,3.08245232415622,53.6601956728553,1.95883645337421,-6.84239961032332,0
0.771771771771772,-2.19948058315593,3.0903919546688,53.6519406327117,1.9892221060265,-6.84312485447278,0
0.773273273273273,-2.36589810364644,3.09888999939994,53.6430951148141,2.01959214463751,-6.8438451536324,0
0.774774774774775,-2.53227648639493,3.10794607613738,53.6336592995162,2.0499456578513,-6.84456050440551,0
0.776276276276276,-2.69861297022623,3.1175597772665,53.6236333796132,2.0802817360642,-6.84527090528308,0
0.777777777777778,-2.86490479812113,3.12773066985468,53.6130175603066,2.11059947153845,-6.8459763566361,0
0.779279279279279,-3.03114921748675,3.13845829574087,53.6018120591663,2.14089795851516,-6.84667686070709,0
0.780780780780781,-3.197343480426,3.14974217163029,53.5900171060906,2.17117629332682,-6.84737242160099,0
0.782282282282282,-3.3634848440058,3.16158178919435,53.5776329432643,2.20143357450912,-6.84806304527523,0
0.783783783783784,-3.52957057052411,3.17397661517556,53.5646598251139,2.23166890291207,-6.84874873952918,0
0.785285285285285,-3.69559792777572,3.18692609149764,53.5510980182613,2.26188138181054,-6.84942951399276,0
0.786786786786787,-3.8615641893167,3.20042963538051,53.5369478014749,2.29207011701402,-6.8501053801145,0
0.788288288288288,-4.02746663472741,3.21448663946039,53.5222094656186,2.3222342169756,-6.85077635114874,0
0.78978978978979,-4.19330254987414,3.22909647191465,53.5068833135984,2.3523727929002,-6.85144244214227,0
0.791291291291291,-4.35906922716915,3.24425847659175,53.4909696603077,2.38248495885205,-6.85210366992015,0
0.792792792792793,-4.5247639658292,3.25997197314582,53.4744688325694,2.41256983186116,-6.85276005307102,0
0.794294294294294,-4.69038407213238,3.27623625717608,53.4573811690765,2.44262653202912,-6.85341161193157,0
0.795795795795796,-4.8559268596733,3.29305060037098,53.4397070203306,2.47265418263381,-6.85405836857047,0
0.797297297297297,-5.02138964961651,3.31041425065701,53.4214467485783,2.50265191023331,-6.85470034677159,0
0.798798798798799,-5.18676977094806,3.32832643235208,53.4026007277451,2.53261884476876,-6.8553375720166,0
0.8003003003003,-5.35206456072529,3.34678634632341,53.3831693433682,2.5625541196663,-6.8559700714669,0
0.801801801801802,-5.51727136432459,3.36579317014999,53.3631529925264,2.59245687193791,-6.85659787394501,0
0.803303303303303,-5.68238753568725,3.38534605828941,53.3425520837683,2.62232624228131,-6.85722100991523,0
0.804804804804805,-5.84741043756326,3.40544414224898,53.3213670370391,2.65216137517865,-6.85783951146381,0
0.806306306306306,-6.01233744175302,3.42608653076119,53.2995982836046,2.68196141899425,-6.85845341227844,0
0.807807807807808,-6.17716592934691,3.44727230996345,53.2772462659736,2.71172552607111,-6.8590627476272,0
0.809309309309309,-6.34189329096263,3.46900054358185,53.2543114378189,2.74145285282629,-6.85966755433694,0
0.810810810810811,-6.5065169269804,3.49127027311907,53.2307942638957,2.77114255984514,-6.86026787077109,0
0.812312312312312,-6.67103424777579,3.5140805180463,53.2066952199585,2.80079381197435,-6.86086373680693,0
0.813813813813814,-6.83544267395018,3.53743027599904,53.1820147926763,2.83040577841372,-6.8614551938123,0
0.815315315315315,-6.99973963655895,3.56131852297685,53.1567534795461,2.85997763280671,-6.86204228462179,0
0.816816816816817,-7.16392257733712,3.58574421354676,53.130911788804,2.88950855332975,-6.86262505351248,0
0.818318318318318,-7.32798894892258,3.61070628105051,53.1044902393351,2.91899772278025,-6.86320354617908,0
0.81981981981982,-7.49193621507675,3.63620363781535,53.0774893605821,2.94844432866326,-6.86377780970866,0
0.821321321321321,-7.65576185090272,3.66223517536835,53.0499096924512,2.9778475632769,-6.86434789255483,0
0.822822822822823,-7.81946334306076,3.68879976465432,53.0217517852169,3.0072066237963,-6.86491384451157,0
0.824324324324324,-7.98303818998115,3.71589625625699,52.9930161994257,3.03652071235634,-6.86547571668648,0
0.825825825825826,-8.14648390207435,3.74352348062354,52.9637035057969,3.06578903613285,-6.86603356147368,0
0.827327327327327,-8.30979800193847,3.77168024829236,52.9338142851235,3.09501080742253,-6.86658743252627,0
0.828828828828829,-8.47297802456387,3.80036535012401,52.9033491281698,3.12418524372135,-6.86713738472833,0
0.83033033033033,-8.63602151753509,3.8295775575351,52.8723086355693,3.15331156780163,-6.86768347416662,0
0.831831831831832,-8.79892604122982,3.85931562273532,52.8406934177193,3.18238900778756,-6.8682257581018,0
0.833333333333333,-8.96168916901505,3.88957827896721,52.8085040946759,3.2114167972293,-6.8687642949393,0
0.834834834834835,-9.12430848744032,3.92036424074887,52.7757412960458,3.24039417517563,-6.8692991441999,0
0.836336336336336,-9.28678159642801,3.95167220411926,52.7424056608785,3.26932038624508,-6.86983036648989,0
0.837837837837838,-9.44910610946066,3.98350084688625,52.7084978375554,3.29819468069552,-6.87035802347091,0
0.839339339339339,-9.61127965376525,4.0158488288771,52.6740184836791,3.32701631449232,-6.87088217782953,0
0.840840840840841,-9.77329987049457,4.04871479219155,52.6389682659605,3.35578454937491,-6.87140289324646,0
0.842342342342342,-9.93516441490536,4.08209736145712,52.6033478601048,3.38449865292182,-6.87192023436552,0
0.843843843843844,-10.0968709565335,4.11599514408684,52.5671579506965,3.41315789861417,-6.8724342667623,0
0.845345345345345,-10.258417179366,4.15040673053902,52.5303992310834,3.44176156589766,-6.87294505691257,0
0.846846846846847,-10.4198007820101,4.18533069457932,52.4930724032586,3.47030894024287,-6.8734526721605,0
0.848348348348348,-10.5810194778586,4.22076559354465,52.4551781777423,3.49879931320412,-6.87395718068651,0
0.84984984984985,-10.7420709952529,4.25670996860913,52.4167172734622,3.52723198247669,-6.87445865147507,0
0.851351351351351,-10.9029530776419,4.29316234505183,52.3776904176324,3.55560625195239,-6.87495715428214,0
0.852852852852853,-11.0636634837387,4.33012123252633,52.338098345632,3.58392143177369,-6.87545275960256,0
0.854354354354354,-11.2241999876729,4.36758512533178,52.2979418008824,3.61217683838611,-6.87594553863712,0
0.855855855855856,-11.3845603791406,4.40555250268581,52.2572215347234,3.64037179458908,-6.87643556325957,0
0.857357357357357,-11.5447424635511,4.44402182899868,52.2159383062886,3.66850562958517,-6.87692290598346,0
0.858858858858859,-11.7047440621691,4.48299155414892,52.1740928823801,3.69657767902774,-6.87740763992877,0
0.86036036036036,-11.8645630122557,4.52246011376034,52.1316860373417,3.72458728506695,-6.87788983878853,0
0.861861861861862,-12.0241971672037,4.56242592948022,52.0887185529324,3.75253379639415,-6.87836957679523,0
0.863363363363363,-12.1836443966717,4.60288740925855,52.0451912181977,3.78041656828471,-6.87884692868722,0
0.864864864864865,-12.3429025867136,4.64384294762849,52.0011048293411,3.80823496263918,-6.87932196967489,0
0.866366366366366,-12.5019696399052,4.68529092598768,51.9564601895948,3.83598834802285,-6.87979477540695,0
0.867867867867868,-12.6608434754673,4.72722971288049,51.9112581090893,3.86367609970376,-6.88026542193652,0
0.869369369369369,-12.8195220293854,4.76965766428098,51.8654994047224,3.89129759968896,-6.88073398568723,0
0.870870870870871,-12.9780032545267,4.81257312387668,51.8191849000281,3.91885223675934,-6.88120054341927,0
0.872372372372372,-13.1362851207526,4.8559744233529,51.7723154250441,3.94633940650271,-6.88166517219542,0
0.873873873873874,-13.2943656150289,4.89985988267765,51.7248918161793,3.97375851134535,-6.88212794934708,0
0.875375375375375,-13.4522427415319,4.94422781038699,51.6769149160808,4.00110896058193,-6.88258895244028,0
0.876876876876877,-13.6099145217518,4.98907650387073,51.6283855734996,4.02839017040389,-6.88304825924171,0
0.878378378378378,-13.7673789945918,5.03440424965848,51.579304643157,4.05560156392615,-6.88350594768485,0
0.87987987987988,-13.9246342164651,5.08020932370586,51.5296729856097,4.08274257121231,-6.88396209583596,0
0.881381381381381,-14.0816782613873,5.12648999168089,51.4794914671146,4.10981262929825,-6.88441678186034,0
0.882882882882883,-14.2385092210663,5.17324450925039,51.4287609594935,4.13681118221414,-6.88487008398848,0
0.884384384384384,-14.3951252049883,5.22047112236639,51.3774823399974,4.16373768100492,-6.88532208048235,0
0.885885885885886,-14.5515243405012,5.26816806755245,51.32565649117,4.19059158374922,-6.88577284960177,0
0.887387387387387,-14.7077047728935,5.3163335721897,51.2732843007117,4.21737235557672,-6.8862224695709,0
0.888888888888889,-14.8636646654711,5.36496585480278,51.2203666613426,4.24407946868398,-6.88667101854472,0
0.89039039039039,-15.01940219963,5.41406312534535,51.1669044706656,4.27071240234879,-6.8871185745758,0
0.891891891891892,-15.1749155749259,5.46362358548517,51.1128986310295,4.2972706429429,-6.88756521558102,0
0.893393393393393,-15.3302030091406,5.51364542888884,51.0583500493912,4.32375368394337,-6.88801101930854,0
0.894894894894895,-15.485262738345,5.56412684150584,51.0032596371788,4.35016102594232,-6.88845606330489,0
0.896396396396396,-15.6400930169587,5.61506600185205,50.9476283101534,4.37649217665525,-6.88890042488212,0
0.897897897897898,-15.7946921178071,5.66646108129253,50.8914569882718,4.40274665092792,-6.88934418108527,0
0.899399399399399,-15.9490583321737,5.71831024432358,50.8347465955487,4.42892397074166,-6.88978740865989,0
0.900900900900901,-16.1031899698512,5.77061164885395,50.7774980599187,4.45502366521738,-6.89023018401977,0
0.902402402402402,-16.2570853591874,5.82336344648519,50.7197123130986,4.48104527061803,-6.89067258321486,0
0.903903903903904,-16.4107428471295,5.87656378279101,50.6613902904496,4.50698833034968,-6.89111468189941,0
0.905405405405405,-16.564160799264,5.9302107975956,50.6025329308393,4.53285239496123,-6.89155655530028,0
0.906906906906907,-16.7173375998547,5.98430262525101,50.5431411765042,4.55863702214268,-6.89199827818545,0
0.908408408408408,-16.870271651876,6.03883739491317,50.4832159729121,4.58434177672204,-6.89243992483281,0
0.90990990990991,-17.0229613770446,6.09381323081688,50.4227582686243,4.60996623066089,-6.89288156899911,0
0.911411411411411,-17.1754052158474,6.14922825254949,50.3617690151586,4.63550996304857,-6.89332328388916,0
0.912912912912913,-17.3276016275658,6.20508057532322,50.3002491668516,4.66097256009508,-6.89376514212531,0
0.914414414414414,-17.4795490902984,6.26136831024613,50.2381996807219,4.68635361512263,-6.89420721571711,0
0.915915915915916,-17.6312461009791,6.31808956459169,50.1756215163333,4.71165272855588,-6.8946495760313,0
0.917417417417417,-17.7826911753931,6.37524244206682,50.1125156356582,4.73686950791096,-6.89509229376194,0
0.918918918918919,-17.9338828481899,6.43282504307842,50.0488830029409,4.76200356778318,-6.89553543890099,0
0.92042042042042,-18.0848196728931,6.49083546499828,49.9847245845619,4.78705452983348,-6.89597908070893,0
0.921921921921922,-18.2355002219072,6.54927180242639,49.9200413489018,4.81202202277369,-6.89642328768585,0
0.923423423423423,-18.3859230865217,6.60813214745258,49.8548342662061,4.83690568235054,-6.89686812754273,0
0.924924924924925,-18.5360868769125,6.66741458991631,49.7891043084498,4.86170515132853,-6.897313667173,0
0.926426426426426,-18.68599022214,6.72711721766484,49.7228524492024,4.88642007947155,-6.89775997262442,0
0.927927927927928,-18.8356317701447,6.78723811680942,49.6560796634941,4.91105012352342,-6.89820710907123,0
0.929429429429429,-18.9850101877399,6.84777537197979,49.5887869276812,4.93559494718721,-6.89865514078662,0
0.930930930930931,-19.134124160602,6.90872706657655,49.5209752193125,4.9600542211035,-6.8991041311155,0
0.932432432432432,-19.2829723932571,6.97009128302178,49.4526455169964,4.98442762282752,-6.89955414244753,0
0.933933933933934,-19.4315536090665,7.03186610300753,49.3837988002679,5.00871483680522,-6.90000523619053,0
0.935435435435435,-19.5798665502076,7.09404960774237,49.3144360494565,5.03291555434822,-6.90045747274415,0
0.936936936936937,-19.7279099776541,7.15663987819586,49.244558245554,5.05702947360778,-6.90091091147386,0
0.938438438438438,-19.8756826711522,7.21963499534082,49.1741663700837,5.08105629954775,-6.90136561068529,0
0.93993993993994,-20.0231834291946,7.28303304039362,49.1032614049691,5.10499574391642,-6.90182162759885,0
0.941441441441441,-20.1704110689925,7.34683209505221,49.031844332404,5.12884752521749,-6.90227901832468,0
0.942942942942943,-20.3173644264445,7.41103024173194,48.9599161347226,5.15261136868003,-6.90273783783797,0
0.944444444444444,-20.4640423561031,7.47562556379923,48.8874777942702,5.1762870062275,-6.90319813995451,0
0.945945945945946,-20.6104437311392,7.54061614580288,48.8145302932749,5.19987417644579,-6.90365997730669,0
0.947447447447447,-20.7565674433035,7.60600007370319,48.7410746137191,5.22337262455045,-6.9041234013197,0
0.948948948948949,-20.9024124028864,7.67177543509872,48.6671117372126,5.24678210235297,-6.90458846218817,0
0.95045045045045,-21.0479775386747,7.7379403194507,48.5926426448654,5.27010236822618,-6.90505520885306,0
0.951951951951952,-21.1932617979068,7.80449281830509,48.5176683171617,5.29333318706883,-6.90552368897896,0
0.953453453453453,-21.3382641462247,7.87143102551233,48.4421897338342,5.31647433026938,-6.9059939489316,0
0.954954954954955,-21.4829835676252,7.93875303744456,48.3662078737393,5.33952557566887,-6.90646603375584,0
0.956456456456456,-21.6274190644072,8.00645695321053,48.2897237147327,5.36248670752311,-6.90693998715389,0
0.957957957957958,-21.7715696571182,8.07454087486796,48.2127382335458,5.38535751646407,-6.90741585146389,0
0.959459459459459,-21.9154343844981,8.14300290763358,48.1352524056631,5.40813779946049,-6.90789366763881,0
0.960960960960961,-22.0590123034211,8.21184116009056,48.0572672051994,5.43082735977779,-6.90837347522573,0
0.962462462462462,-22.202302488835,8.28105374439352,47.9787836047786,5.45342600693727,-6.90885531234538,0
0.963963963963964,-22.3453040336999,8.350638776471,47.8998025754128,5.47593355667461,-6.90933921567205,0
0.965465465465465,-22.4880160489231,8.42059437622546,47.8203250863824,5.49834983089774,-6.90982522041383,0
0.966966966966967,-22.6304376632935,8.49091866773076,47.7403521051159,5.52067465764395,-6.91031336029317,0
0.968468468468468,-22.7725680234134,8.56160977942698,47.6598845970721,5.54290787103655,-6.91080366752774,0
0.96996996996997,-22.9144062936289,8.6326658443128,47.5789235256218,5.56504931124072,-6.91129617281168,0
0.971471471471472,-23.0559516559577,8.70408500013536,47.4974698519301,5.58709882441894,-6.91179090529709,0
0.972972972972973,-23.1972033100162,8.77586538957746,47.4155245348409,5.6090562626857,-6.9122878925759,0
0.974474474474474,-23.3381604729439,8.8480051604422,47.33308853076,5.6309214840618,-6.91278716066204,0
0.975975975975976,-23.4788223793267,8.92050246583509,47.2501627935411,5.65269435242801,-6.9132887339739,0
0.977477477477477,-23.6191882811182,8.99335546434359,47.1667482743711,5.67437473747823,-6.91379263531719,0
0.978978978978979,-23.7592574475597,9.06656232021402,47.0828459216564,5.69596251467223,-6.91429888586796,0
0.980480480480481,-23.8990291650979,9.14012120352592,46.9984566809109,5.71745756518779,-6.91480750515612,0
0.981981981981982,-24.0385027373023,9.21403029036378,46.9135814946434,5.73885977587249,-6.91531851104907,0
0.983483483483483,-24.1776774847793,9.28828776298629,46.8282213022466,5.76016903919501,-6.91583191973578,0
0.984984984984985,-24.3165527450869,9.36289180999289,46.7423770398869,5.781385253196,-6.91634774571113,0
0.986486486486487,-24.4551278726459,9.43784062648777,46.6560496403948,5.80250832143856,-6.91686600176048,0
0.987987987987988,-24.5934022386514,9.51313241424137,46.5692400331557,5.82353815295834,-6.91738669894462,0
0.989489489489489,-24.7313752309819,9.58876538184923,46.4819491440021,5.84447466221326,-6.91790984658498,0
0.990990990990991,-24.8690462541071,9.66473774488825,46.3941778951063,5.86531776903288,-6.9184354522491,0
0.992492492492492,-25.0064147289949,9.74104772607046,46.305927204874,5.88606739856741,-6.91896352173644,0
0.993993993993994,-25.1434800930171,9.81769355539418,46.2171979878383,5.90672348123649,-6.91949405906438,0
0.995495495495496,-25.2802417998531,9.89467347029271,46.127991154555,5.92728595267754,-6.92002706645458,0
0.996996996996997,-25.4166993193934,9.97198571578028,46.0383076114982,5.94775475369396,-6.92056254431959,0
0.998498498498498,-25.5528521376413,10.0496285445958,45.9481482609573,5.96812983020294,-6.92110049124967,0
1,-25.6886997566134,10.1276002173437,45.8575140009339,5.98841113318314,-6.92164090399998,0
1.0015015015015,-25.8238346613941,10.2056638711451,45.7666793234666,6.00853799554261,-6.9221821472272,0
1.003003003003,-25.9582591383113,10.2838148581673,45.6756493715006,6.02851122191026,-6.92272419194911,0
1.0045045045045,-26.0919754891516,10.3620485783421,45.5844292547594,6.04833161988201,-6.92326700754205,0
1.00600600600601,-26.2249860305343,10.4403604790174,45.4930240499036,6.06799999981951,-6.9238105617837,0
1.00750750750751,-26.3572930932952,10.5187460546025,45.4014388006927,6.08751717465293,-6.92435482089593,0
1.00900900900901,-26.4888990218809,10.5972008462112,45.3096785181498,6.10688395968791,-6.92489974958762,0
1.01051051051051,-26.6198061737523,10.6757204413008,45.2177481807293,6.1261011724165,-6.92544531109742,0
1.01201201201201,-26.7500169187989,10.7543004733075,45.1256527344861,6.1451696323322,-6.9259914672364,0
1.01351351351351,-26.8795336387623,10.8329366212794,45.0333970932482,6.16409016074892,-6.92653817843065,0
1.01501501501502,-27.0083587266702,10.9116246095064,44.9409861387908,6.18286358062388,-6.92708540376375,0
1.01651651651652,-27.136494586279,10.9903602071472,44.848424721013,6.20149071638447,-6.9276331010191,0
1.01801801801802,-27.2639436315274,11.0691392278546,44.7557176581167,6.21997239375888,-6.92818122672213,0
1.01951951951952,-27.3907082859989,11.1479575293978,44.6628697367864,6.23830943961057,-6.92872973618222,0
1.02102102102102,-27.5167909823935,11.2268110132839,44.5698857123721,6.25650268177649,-6.92927858353461,0
1.02252252252252,-27.6421941620098,11.3056956243763,44.4767703090733,6.27455294890902,-6.92982772178192,0
1.02402402402402,-27.7669202742355,11.3846073505127,44.3835282201242,6.29246107032161,-6.93037710283556,0
1.02552552552553,-27.890971776048,11.4635422221213,44.2901641079811,6.31022787583795,-6.93092667755686,0
1.02702702702703,-28.0143511315235,11.5424963118357,44.1966826045109,6.32785419564482,-6.93147639579793,0
1.02852852852853,-28.1370608113556,11.6214657341089,44.1030883111809,6.34534086014839,-6.93202620644226,0
1.03003003003003,-28.2591032923832,11.7004466448271,44.0093857992498,6.36268869983404,-6.93257605744504,0
1.03153153153153,-28.3804810571266,11.7794352409217,43.9155796099596,6.37989854512959,-6.9331258958732,0
1.03303303303303,-28.5011965933333,11.8584277599817,43.821674254729,6.39697122627191,-6.93367566794506,0
1.03453453453453,-28.6212523935317,11.9374204798658,43.7276742153475,6.41390757317688,-6.93422531906976,0
1.03603603603604,-28.7406509545948,12.0164097183137,43.6335839441701,6.43070841531262,-6.93477479388626,0
1.03753753753754,-28.8593947773105,12.0953918325583,43.5394078643129,6.44737458157597,-6.93532403630208,0
1.03903903903904,-28.9774863659628,12.1743632189369,43.4451503698498,6.46390690017213,-6.93587298953163,0
1.04054054054054,-29.0949282279191,12.2533203125041,43.3508158260093,6.48030619849747,-6.93642159613419,0
1.04204204204204,-29.2117228732276,12.3322595866435,43.2564085693717,6.49657330302539,-6.9369697980515,0
1.04354354354354,-29.3278728142218,12.4111775526816,43.1619329080673,6.51270903919531,-6.93751753664497,0
1.04504504504505,-29.4433805651336,12.4900707595008,43.0673931219746,6.52871423130451,-6.93806475273257,0
1.04654654654655,-29.5582486417144,12.5689357931547,42.9727934629188,6.54458970240303,-6.93861138662518,0
1.04804804804805,-29.6724795608641,12.6477692764828,42.8781381548709,6.56033627419144,-6.93915737816267,0
1.04954954954955,-29.7860758402678,12.7265678687276,42.783431394146,6.57595476692142,-6.93970266674949,0
1.05105105105105,-29.89903999804,12.8053282651518,42.688677349603,6.59144599929916,-6.94024719138986,0
1.05255255255255,-30.0113745523775,12.8840471966574,42.5938801628433,6.60681078839153,-6.94079089072254,0
1.05405405405405,-30.1230820212183,12.9627214294057,42.49904394841,6.62204994953494,-6.94133370305518,0
1.05555555555556,-30.2341649219093,13.0413477644391,42.4041727939867,6.63716429624683,-6.94187556639818,0
1.05705705705706,-30.3446257708803,13.119923037304,42.3092707605965,6.65215464013981,-6.94241641849822,0
1.05855855855856,-30.454467083326,13.1984441176758,42.2143418828,6.66702179083834,-6.94295619687122,0
1.06006006006006,-30.5636913728945,13.2769079089854,42.1193901688945,6.68176655589792,-6.94349483883493,0
1.06156156156156,-30.6723011513837,13.355311348047,42.0244196011109,6.69638974072677,-6.94403228154107,0
1.06306306306306,-30.7802989284435,13.4336514046887,41.9294341358122,6.71089214850992,-6.94456846200696,0
1.06456456456456,-30.8876872112857,13.5119250813843,41.8344377036899,6.72527458013566,-6.94510331714675,0
1.06606606606607,-30.9944685044006,13.5901294128874,41.7394342099613,6.73953783412439,-6.94563678380218,0
1.06756756756757,-31.1006453092796,13.6682614658675,41.644427534565,6.75368270655966,-6.94616879877284,0
1.06906906906907,-31.2062201241451,13.7463183385483,41.549421532357,6.76770999102154,-6.94669929884601,0
1.07057057057057,-31.3111954436864,13.8242971603481,41.4544200333053,6.78162047852214,-6.94722822082602,0
1.07207207207207,-31.4155737588022,13.9021950915226,41.3594268426843,6.79541495744331,-6.94775550156317,0
1.07357357357357,-31.5193575563491,13.9800093228099,41.2644457412683,6.80909421347645,-6.94828107798207,0
1.07507507507508,-31.6225493188964,14.0577370750782,41.1694804855242,6.82265902956439,-6.94880488710972,0
1.07657657657658,-31.7251515244871,14.135375598975,41.0745348078037,6.83611018584529,-6.94932686610289,0
1.07807807807808,-31.8271666464048,14.2129221745801,40.9796124165346,6.84944845959853,-6.94984695227521,0
1.07957957957958,-31.928597152946,14.2903741110602,40.8847169964106,6.86267462519258,-6.95036508312369,0
1.08108108108108,-32.0294455071991,14.3677287463261,40.7898522085812,6.87578945403474,-6.95088119635481,0
1.08258258258258,-32.1297141668282,14.4449834466931,40.69502169084,6.88879371452274,-6.95139522991015,0
1.08408408408408,-32.2294055838632,14.5221356065431,40.6002290578125,6.90168817199819,-6.9519071219915,0
1.08558558558559,-32.3285222044948,14.5991826479906,40.5054779011419,6.91447358870183,-6.95241681108558,0
1.08708708708709,-32.4270664688755,14.67612202055,40.4107717896754,6.92715072373049,-6.95292423598823,0
1.08858858858859,-32.5250408109252,14.752951200807,40.3161142696481,6.93972033299577,-6.95342933582816,0
1.09009009009009,-32.622447658143,14.8296676920918,40.2215088648666,6.95218316918441,-6.95393205009023,0
1.09159159159159,-32.719289431423,14.9062690241553,40.1269590768909,6.96453998172033,-6.9544323186383,0
1.09309309309309,-32.8155685448762,14.9827527528487,40.032468385216,6.97679151672815,-6.95493008173754,0
1.09459459459459,-32.9112874056569,15.059116459805,39.938040247451,6.9889385169984,-6.95542528007639,0
1.0960960960961,-33.0064484137936,15.1353577521242,39.8436780994988,7.00098172195421,-6.95591785478796,0
1.0975975975976,-33.1010539620257,15.2114742620611,39.7493853557325,7.01292186761948,-6.95640774747103,0
1.0990990990991,-33.1951064356436,15.2874636467154,39.6551654091726,7.02475968658852,-6.95689490021059,0
1.1006006006006,-33.2886082123349,15.363323587726,39.5610216316613,7.03649590799709,-6.95737925559793,0
1.1021021021021,-33.3815616620337,15.4390517909669,39.4669573740366,7.04813125749491,-6.95786075675026,0
1.1036036036036,-33.4739691467755,15.5146459862471,39.3729759663044,7.05966645721942,-6.9583393473299,0
1.10510510510511,-33.5658330205557,15.5901039270128,39.2790807178099,7.07110222577093,-6.95881497156305,0
1.10660660660661,-33.6571556291931,15.6654233900526,39.1852749174069,7.08243927818907,-6.95928757425805,0
1.10810810810811,-33.7479393101968,15.740602175206,39.0915618336266,7.09367832593047,-6.95975710082329,0
1.10960960960961,-33.8381863926379,15.815638105075,38.9979447148443,7.10482007684764,-6.96022349728461,0
1.11111111111111,-33.9278991970251,15.8905290247379,38.9044267894453,7.11586523516918,-6.9606867103023,0
1.11261261261261,-34.017080035184,15.965272801467,38.8110112659886,7.12681450148101,-6.96114668718767,0
1.11411411411411,-34.1057312101407,16.0398673244487,38.7177013333703,7.13766857270879,-6.96160337591919,0
1.11561561561562,-34.1938550160092,16.1143105045069,38.6245001609845,7.14842814210155,-6.9620567251582,0
1.11711711711712,-34.281453737882,16.1886002738291,38.5314108988836,7.15909389921622,-6.96250668426421,0
1.11861861861862,-34.3685296517251,16.2627345856961,38.4384366779362,7.16966652990338,-6.96295320330975,0
1.12012012012012,-34.4550850242765,16.3367114142136,38.3455806099847,7.18014671629399,-6.96339623309488,0
1.12162162162162,-34.5411221129476,16.4105287540484,38.2528457880005,7.19053513678702,-6.96383572516119,0
1.12312312312312,-34.6266431657289,16.4841846201658,38.1602352862379,7.20083246603825,-6.96427163180546,0
1.12462462462462,-34.7116504210986,16.5576770475712,38.0677521603872,7.21103937494983,-6.9647039060929,0
1.12612612612613,-34.7961461079348,16.6310040910545,37.9753994477249,7.22115653066087,-6.96513250186999,0
1.12762762762763,-34.8801324454307,16.704163824937,37.8831801672639,7.23118459653894,-6.96555737377689,0
1.12912912912913,-34.963611643013,16.7771543428217,37.7910973199012,7.24112423217234,-6.96597847725951,0
1.13063063063063,-35.046585900264,16.8499737573465,37.6991538885644,7.25097609336333,-6.96639576858113,0
1.13213213213213,-35.1290574068461,16.9226201999399,37.6073528383567,7.26074083212214,-6.9668092048337,0
1.13363363363363,-35.2110283424295,16.9950918205805,37.5156971167002,7.27041909666179,-6.96721874394869,0
1.13513513513514,-35.2925008766229,17.0673867875586,37.4241896534779,7.28001153139366,-6.96762434470758,0
1.13663663663664,-35.3734771689072,17.1395032872413,37.3328333611738,7.28951877692387,-6.96802596675203,0
1.13813813813814,-35.4539593685717,17.2114395238398,37.241631135012,7.29894147005036,-6.96842357059354,0
1.13963963963964,-35.5339496146536,17.2831937191804,37.1505858530933,7.3082802437607,-6.9688171176229,0
1.14114114114114,-35.6134500358792,17.3547641124783,37.0597003765316,7.3175357272306,-6.96920657011918,0
1.14264264264264,-35.6924627506093,17.4261489601132,36.9689775495874,7.32670854582305,-6.96959189125835,0
1.14414414414414,-35.7709898667852,17.4973465354092,36.8784201998005,7.33579932108816,-6.96997304512157,0
1.14564564564565,-35.8490334818794,17.5683551284167,36.7880311381211,7.34480867076365,-6.97034999670317,0
1.14714714714715,-35.9265956828466,17.6391730456971,36.6978131590389,7.35373720877586,-6.97072271191814,0
1.14864864864865,-36.0036785460792,17.709798610111,36.6077690407111,7.36258554524147,-6.97109115760942,0
1.15015015015015,-36.0802841373631,17.780230160608,36.5179015450887,7.37135428646971,-6.97145530155476,0
1.15165165165165,-36.1564145118379,17.8504660520207,36.4282134180409,7.38004403496518,-6.97181511247328,0
1.15315315315315,-36.2320717139575,17.9205046548601,36.3387073894784,7.38865538943116,-6.9721705600316,0
1.15465465465465,-36.307257777454,17.9903443551148,36.2493861734751,7.39718894477351,-6.97252161484982,0
1.15615615615616,-36.3819747253036,18.0599835540524,36.1602524683877,7.405645292105,-6.97286824850693,0
1.15765765765766,-36.4562245696941,18.1294206680235,36.0713089569744,7.41402501875022,-6.97321043354611,0
1.15915915915916,-36.5300093119952,18.1986541282691,35.9825583065115,7.42232870825084,-6.97354814347955,0
1.16066066066066,-36.6033309427303,18.2676823807294,35.894003168909,7.43055694037144,-6.97388135279306,0
1.16216216216216,-36.6761914415503,18.3365038858567,35.8056461808239,7.43871029110573,-6.97421003695024,0
1.16366366366366,-36.7485927772093,18.4051171184298,35.7174899637727,7.4467893326832,-6.97453417239648,0
1.16516516516517,-36.8205369075425,18.4735205673719,35.6295371242419,7.45479463357616,-6.97485373656253,0
1.16666666666667,-36.8920257794457,18.54171273557,35.5417902537969,7.46272675850724,-6.97516870786785,0
1.16816816816817,-36.9630613288562,18.6096921396981,35.4542519291897,7.47058626845718,-6.97547906572353,0
1.16966966966967,-37.0336454807362,18.6774573100423,35.3669247124647,7.4783737206731,-6.97578479053511,0
1.17117117117117,-37.1037801490572,18.7450067903279,35.2798111510633,7.48608966867699,-6.97608586370487,0
1.17267267267267,-37.1734672367864,18.8123391375506,35.1929137779265,7.49373466227465,-6.97638226763403,0
1.17417417417417,-37.2427086358748,18.8794529218084,35.1062351115965,7.50130924756492,-6.97667398572452,0
1.17567567567568,-37.3115062272465,18.9463467261372,35.0197776563163,7.50881396694922,-6.97696100238053,0
1.17717717717718,-37.3798618807897,19.0130191463482,34.9335439021282,7.51624935914138,-6.97724330300974,0
1.17867867867868,-37.4477774553494,19.0794687908681,34.8475363249704,7.52361595917781,-6.97752087402434,0
1.18018018018018,-37.5152547987213,19.1456942805817,34.7617573867723,7.53091429842785,-6.97779370284163,0
1.18168168168168,-37.582295747647,19.2116942486764,34.6762095355483,7.53814490460455,-6.97806177788453,0
1.18318318318318,-37.648902127811,19.2774673404897,34.5908952054899,7.54530830177549,-6.97832508858165,0
1.18468468468468,-37.7150757538388,19.3430122133589,34.5058168170567,7.55240501037406,-6.97858362536719,0
1.18618618618619,-37.7808184292958,19.4083275364725,34.4209767770653,7.55943554721082,-6.97883737968058,0
1.18768768768769,-37.8461319466887,19.4734119907249,34.3363774787776,7.56640042548514,-6.97908634396578,0
1.18918918918919,-37.9110180874667,19.5382642685728,34.2520213019864,7.57330015479707,-6.97933051167038,0
1.19069069069069,-37.9754786220252,19.6028830738936,34.1679106131009,7.58013524115937,-6.97956987724445,0
1.19219219219219,-38.0395153097095,19.6672671218469,34.0840477652296,7.58690618700978,-6.97980443613911,0
1.19369369369369,-38.1031298988205,19.7314151387372,34.0004350982625,7.59361349122342,-6.98003418480487,0
1.1951951951952,-38.1663241266212,19.7953258618798,33.9170749389514,7.60025764912541,-6.98025912068967,0
1.1966966966967,-38.2290997193441,19.8589980394681,33.8339696009888,7.60683915250363,-6.98047924223677,0
1.1981981981982,-38.2914583921998,19.9224304304431,33.7511213850858,7.61335848962165,-6.98069454888235,0
1.1996996996997,-38.3534018493869,19.9856218043659,33.668532579048,7.6198161452318,-6.98090504105281,0
1.2012012012012,-38.4149317841022,20.0485709412911,33.5862054578504,7.62621260058836,-6.98111072016197,0
1.2027027027027,-38.4760498785524,20.1112766316431,33.5041422837106,7.63254833346094,-6.9813115886079,0
1.2042042042042,-38.5367578039665,20.1737376760943,33.4223453061605,7.63882381814792,-6.98150764976963,0
1.20570570570571,-38.5970572206095,20.2359528854451,33.3408167621175,7.64503952549002,-6.98169890800356,0
1.20720720720721,-38.656949777796,20.2979210805065,33.2595588759528,7.65119592288401,-6.98188536863971,0
1.20870870870871,-38.7164371139057,20.3596410919836,33.17857385956,7.65729347429649,-6.98206703797766,0
1.21021021021021,-38.7755208563993,20.4211117603627,33.0978639124207,7.66333264027776,-6.98224392328237,0
1.21171171171171,-38.834202621835,20.4823319357986,33.0174312216699,7.66931387797581,-6.98241603277972,0
1.21321321321321,-38.8924840158858,20.5433004780055,32.93727796216,7.67523764115034,-6.98258337565188,0
1.21471471471471,-38.950366633358,20.6040162561483,32.8574062965223,7.6811043801869,-6.98274596203243,0
1.21621621621622,-39.0078520582099,20.6644781487371,32.7778183752289,7.68691454211107,-6.98290380300129,0
1.21771771771772,-39.0649418635712,20.7246850435228,32.6985163366517,7.69266857060272,-6.98305691057946,0
1.21921921921922,-39.1216376117639,20.7846358373947,32.6195023071211,7.69836690601028,-6.98320529772356,0
1.22072072072072,-39.1779408543221,20.8443294362799,32.5407784009829,7.70400998536511,-6.98334897832014,0
1.22222222222222,-39.2338531320146,20.9037647550451,32.4623467206542,7.70959824239589,-6.98348796717981,0
1.22372372372372,-39.2893759748664,20.9629407173991,32.3842093566776,7.71513210754306,-6.98362228003119,0
1.22522522522523,-39.3445109021815,21.0218562557983,32.3063683877749,7.72061200797327,-6.98375193351468,0
1.22672672672673,-39.3992594225663,21.0805103113529,32.2288258808981,7.72603836759384,-6.98387694517599,0
1.22822822822823,-39.453623033953,21.1389018337354,32.1515838912812,7.73141160706733,-6.98399733345951,0
1.22972972972973,-39.5076032236244,21.1970297810909,32.0746444624887,7.73673214382601,-6.98411311770154,0
1.23123123123123,-39.5612014682386,21.2548931199488,31.9980096264641,7.74200039208641,-6.9842243181233,0
1.23273273273273,-39.6144192338539,21.312490825136,31.9216814035769,7.7472167628639,-6.98433095582372,0
1.23423423423423,-39.6672579759549,21.3698218796926,31.8456618026683,7.75238166398716,-6.98443305277217,0
1.23573573573574,-39.7197191394786,21.4268852747882,31.7699528210956,7.75749550011282,-6.98453063180089,0
1.23723723723724,-39.7718041588412,21.4836800096404,31.6945564447754,7.7625586727399,-6.98462371659735,0
1.23873873873874,-39.8235144579646,21.540205091435,31.6194746482263,7.76757158022441,-6.98471233169638,0
1.24024024024024,-39.8748514503044,21.5964595352475,31.5447093946091,7.77253461779383,-6.98479650247216,0
1.24174174174174,-39.9258165388774,21.6524423639657,31.4702626357669,7.77744817756159,-6.98487625513007,0
1.24324324324324,-39.9764111162896,21.7081526082154,31.396136312264,7.78231264854159,-6.98495161669832,0
1.24474474474474,-40.0266365647649,21.7635893062855,31.3223323534228,7.78712841666259,-6.98502261501948,0
1.24624624624625,-40.076494256174,21.8187515040566,31.2488526773606,7.79189586478268,-6.98508927874184,0
1.24774774774775,-40.125985552063,21.8736382549295,31.1756991910247,7.79661537270362,-6.9851516373106,0
1.24924924924925,-40.1751118036835,21.9282486197563,31.1028737902262,7.8012873171852,-6.98520972095892,0
1.25075075075075,-40.2238743520218,21.9825816667722,31.0303783596736,7.80591207195958,-6.98526356069883,0
1.25225225225225,-40.2722745278288,22.0366364715291,30.9582147730039,7.81049000774552,-6.98531318831202,0
1.25375375375375,-40.3203136516506,22.0904121168307,30.8863848928142,7.81502149226262,-6.9853586363404,0
1.25525525525526,-40.3679930338586,22.1439076926686,30.8148905706909,7.81950689024547,-6.98539993807662,0
1.25675675675676,-40.4153139746801,22.1971222961599,30.7437336472386,7.82394656345782,-6.98543712755443,0
1.25825825825826,-40.4622777642296,22.2500550314866,30.6729159521078,7.82834087070661,-6.98547023953883,0
1.25975975975976,-40.5088856825393,22.3027050098357,30.6024393040212,7.832690167856,-6.98549930951618,0
1.26126126126126,-40.5551389995908,22.355071349341,30.5323055107997,7.83699480784131,-6.98552437368415,0
1.26276276276276,-40.6010389753462,22.4071531750262,30.4625163693866,7.84125514068294,-6.98554546894153,0
1.26426426426426,-40.6465868597799,22.4589496187489,30.3930736658712,7.84547151350018,-6.9855626328779,0
1.26576576576577,-40.69178389291,22.5104598191465,30.3239791755116,7.84964427052498,-6.98557590376326,0
1.26726726726727,-40.7366313048306,22.5616829215827,30.2552346627559,7.85377375311565,-6.98558532053739,0
1.26876876876877,-40.7811303157434,22.6126180780958,30.1868418812631,7.85786029977049,-6.98559092279926,0
1.27027027027027,-40.8252821359901,22.663264447348,30.1188025739227,7.86190424614135,-6.98559275079622,0
1.27177177177177,-40.8690879660842,22.7136211945754,30.0511184728731,7.86590592504708,-6.9855908454131,0
1.27327327327327,-40.9125489967439,22.7636874915401,29.9837912995197,7.86986566648699,-6.9855852481612,0
1.27477477477477,-40.9556664089236,22.8134625164829,29.9168227645517,7.87378379765415,-6.98557600116718,0
1.27627627627628,-40.9984413738474,22.8629454540772,29.8502145679577,7.87766064294864,-6.98556314716185,0
1.27777777777778,-41.0408750530405,22.912135495384,29.7839683990412,7.88149652399071,-6.98554672946883,0
1.27927927927928,-41.0829685983628,22.9610318378082,29.7180859364342,7.88529175963392,-6.98552679199314,0
1.28078078078078,-41.1247231520406,23.009633685056,29.6525688481107,7.88904666597807,-6.98550337920967,0
1.28228228228228,-41.1661398467,23.0579402470932,29.5874187913994,7.89276155638219,-6.98547653615156,0
1.28378378378378,-41.207219805399,23.1059507401046,29.5226374129945,7.89643674147732,-6.98544630839851,0
1.28528528528529,-41.2479641416604,23.1536643864546,29.4582263489669,7.9000725291793,-6.98541274206494,0
1.28678678678679,-41.2883739595046,23.2010804146485,29.3941872247739,7.90366922470139,-6.98537588378814,0
1.28828828828829,-41.328450353482,23.2481980592955,29.3305216552683,7.90722713056686,-6.98533578071627,0
1.28978978978979,-41.3681944087058,23.2950165610721,29.2672312447064,7.91074654662146,-6.98529248049629,0
1.29129129129129,-41.4076072008851,23.3415351666864,29.2043175867556,7.91422777004582,-6.98524603126186,0
1.29279279279279,-41.4466897963566,23.387753128844,29.141782264501,7.91767109536769,-6.98519648162107,0
1.29429429429429,-41.4854432521182,23.4336697062142,29.0796268504513,7.92107681447422,-6.98514388064419,0
1.2957957957958,-41.5238686158608,23.4792841633979,29.0178529065435,7.92444521662398,-6.98508827785125,0
1.2972972972973,-41.5619669260014,23.5245957708953,28.9564619841479,7.92777658845901,-6.98502972319967,0
1.2987987987988,-41.5997392117151,23.5696038050758,28.8954556240713,7.93107121401673,-6.98496826707166,0
1.3003003003003,-41.6371864929677,23.6143075481479,28.8348353565598,7.93432937474174,-6.98490396026173,0
1.3018018018018,-41.6743097805485,23.6587062881302,28.7746027013011,7.93755134949753,-6.98483685396401,0
1.3033033033033,-41.7111100761015,23.7027993188239,28.7147591674261,7.94073741457812,-6.98476699975952,0
1.3048048048048,-41.7475883721588,23.7465859397846,28.6553062535095,7.94388784371955,-6.98469444960348,0
1.30630630630631,-41.7837456521718,23.790065456297,28.5962454475698,7.94700290811129,-6.98461925581244,0
1.30780780780781,-41.8195828905438,23.8332371793486,28.5375782270689,7.95008287640759,-6.98454147105141,0
1.30930930930931,-41.8551010526615,23.8761004256057,28.4793060589108,7.95312801473869,-6.98446114832099,0
1.31081081081081,-41.8903010949271,23.9186545173887,28.4214303994398,7.95613858672189,-6.98437834094432,0
1.31231231231231,-41.92518396479,23.9608987826496,28.3639526944378,7.9591148534726,-6.98429310255416,0
1.31381381381381,-41.9597506007782,24.0028325549495,28.3068743791214,7.96205707361525,-6.98420548707973,0
1.31531531531532,-41.9940019325299,24.0444551734367,28.250196878138,7.96496550329408,-6.98411554873367,0
1.31681681681682,-42.0279388808249,24.0857659828265,28.1939216055615,7.96784039618386,-6.98402334199889,0
1.31831831831832,-42.0615623576159,24.1267643333803,28.1380499648874,7.97068200350046,-6.9839289216154,0
1.31981981981982,-42.0948732660593,24.167449580887,28.0825833490276,7.97349057401141,-6.98383234256705,0
1.32132132132132,-42.1278725005465,24.2078210866439,28.0275231403037,7.97626635404621,-6.98373366006836,0
1.32282282282282,-42.1605609467343,24.2478782174385,27.972870710441,7.97900958750669,-6.98363292955121,0
1.32432432432432,-42.1929394815762,24.2876203455318,27.9186274205613,7.98172051587718,-6.98353020665153,0
1.32582582582583,-42.2250089733521,24.3270468486411,27.864794621175,7.98439937823455,-6.98342554719601,0
1.32732732732733,-42.2567702816995,24.3661571099244,27.8113736521729,7.98704641125826,-6.98331900718875,0
1.32882882882883,-42.2882242576431,24.4049505179649,27.758365842818,7.98966184924017,-6.9832106427979,0
1.33033033033033,-42.3193717436249,24.4434264667563,27.705772511736,7.99224592409434,-6.98310051034228,0
1.33183183183183,-42.3502135735344,24.4815843556886,27.6535949669056,7.9947988653667,-6.98298866627799,0
1.33333333333333,-42.380750572738,24.519423589535,27.6018345056486,7.99732090024461,-6.98287516718503,0
1.33483483483483,-42.4109835581085,24.5569435784384,27.5504924146194,7.99981225356629,-6.98276006975385,0
1.33633633633634,-42.4409133380549,24.5941437378998,27.4995699697939,8.00227314783022,-6.982643430772,0
1.33783783783784,-42.4705407125507,24.6310234887658,27.4490684364581,8.00470380320435,-6.98252530711065,0
1.33933933933934,-42.4998664731637,24.667582257218,27.3989890691964,8.00710443753526,-6.98240575571121,0
1.34084084084084,-42.5288914030845,24.7038194747622,27.349333111879,8.0094752663572,-6.98228483357192,0
1.34234234234234,-42.5576162771547,24.7397345782182,27.3001017976499,8.01181650290106,-6.98216259773442,0
1.34384384384384,-42.5860418618961,24.7753270097101,27.2512963489135,8.01412835810312,-6.98203910527035,0
1.34534534534535,-42.614168915538,24.8105962166577,27.202917977321,8.0164110406139,-6.98191441326797,0
1.34684684684685,-42.6419981880458,24.8455416517671,27.1549678837574,8.01866475680668,-6.98178857881877,0
1.34834834834835,-42.6695304211488,24.8801627730237,27.1074472583265,8.02088971078608,-6.98166165900413,0
1.34984984984985,-42.6967663483672,24.9144590436835,27.0603572803375,8.02308610439649,-6.98153371088192,0
1.35135135135135,-42.7237066950402,24.9484299322666,27.0136991182895,8.02525413723038,-6.98140479147323,0
1.35285285285285,-42.7503521783527,24.9820749125504,26.9674739298566,8.02739400663647,-6.98127495774902,0
1.35435435435435,-42.7767035073622,25.0153934635632,26.9216828618729,8.02950590772795,-6.9811442666169,0
1.35585585585586,-42.8027613830259,25.0483850695785,26.8763270503165,8.03159003339039,-6.9810127749078,0
1.35735735735736,-42.828526498227,25.0810492201093,26.831407620294,8.03364657428972,-6.98088053936283,0
1.35885885885886,-42.8539995378007,25.1133854099037,26.7869256860239,8.03567571888002,-6.98074761662004,0
1.36036036036036,-42.8791811785609,25.1453931389397,26.7428823508203,8.03767765341125,-6.98061406320128,0
1.36186186186186,-42.9040720893253,25.1770719124213,26.6992787070766,8.03965256193682,-6.98047993549911,0
1.36336336336336,-42.9286729309415,25.2084212407746,26.6561158362481,8.04160062632115,-6.98034528976371,0
1.36486486486486,-42.9529843563124,25.2394406396445,26.6133948088353,8.04352202624706,-6.98021018208987,0
1.36636636636637,-42.9770070104208,25.2701296298912,26.5711166843662,8.0454169392231,-6.98007466840396,0
1.36786786786787,-43.0007415303549,25.3004877375879,26.5292825113793,8.04728554059072,-6.97993880445106,0
1.36936936936937,-43.0241885453325,25.3305144940181,26.4878933274053,8.04912800353147,-6.97980264578206,0
1.37087087087087,-43.047348676726,25.3602094356734,26.4469501589499,8.05094449907393,-6.9796662477408,0
1.37237237237237,-43.0702225380859,25.3895721042523,26.406454021475,8.05273519610068,-6.97952966545134,0
1.37387387387387,-43.0928107351652,25.4186020466581,26.3664059193812,8.05450026135513,-6.97939295380522,0
1.37537537537538,-43.1151138659428,25.4472988149981,26.3268068459893,8.05623985944822,-6.97925616744884,0
1.37687687687688,-43.1371325206472,25.4756619665824,26.2876577835214,8.05795415286507,-6.97911936077083,0
1.37837837837838,-43.1588672817796,25.5036910639239,26.2489597030832,8.05964330197151,-6.97898258788958,0
1.37987987987988,-43.180318724137,25.5313856747373,26.2107135646443,8.06130746502052,-6.97884590264075,0
1.38138138138138,-43.2014874148344,25.5587453719395,26.1729203170202,8.06294679815858,-6.97870935856491,0
1.38288288288288,-43.2223739133279,25.5857697336496,26.1355808978532,8.06456145543192,-6.97857300889524,0
1.38438438438438,-43.2429787714365,25.6124583431892,26.0986962335934,8.06615158879267,-6.97843690654528,0
1.38588588588589,-43.2633025333641,25.6388107890836,26.0622672394796,8.06771734810493,-6.97830110409679,0
1.38738738738739,-43.2833457357213,25.664826665062,26.0262948195206,8.06925888115075,-6.97816565378772,0
1.38888888888889,-43.3031089075466,25.6905055700591,25.9907798664757,8.07077633363598,-6.97803060750015,0
1.39039039039039,-43.3225925703278,25.7158471082162,25.9557232618359,8.07226984919609,-6.97789601674847,0
1.39189189189189,-43.341797238023,25.7408508888827,25.9211258758044,8.07373956940184,-6.97776193266753,0
1.39339339339339,-43.3607234170808,25.7655165266181,25.8869885672777,8.07518563376489,-6.97762840600094,0
1.39489489489489,-43.379371606461,25.7898436411935,25.8533121838265,8.07660817974332,-6.97749548708942,0
1.3963963963964,-43.3977422976548,25.8138318575939,25.820097561676,8.07800734274704,-6.97736322585931,0
1.3978978978979,-43.4158359747046,25.8374808060203,25.7873455256874,8.07938325614314,-6.97723167181114,0
1.3993993993994,-43.4336531142232,25.8607901218923,25.7550568893384,8.08073605126109,-6.97710087400827,0
1.4009009009009,-43.4511941854138,25.8837594458504,25.7232324547042,8.08206585739798,-6.9769708810657,0
1.4024024024024,-43.4684596500886,25.9063884237589,25.6918730124385,8.08337280182349,-6.97684174113893,0
1.4039039039039,-43.4854499626875,25.9286767067083,25.6609793417543,8.08465700978493,-6.97671350191298,0
1.40540540540541,-43.5021655702973,25.9506239510189,25.6305522104052,8.0859186045121,-6.97658621059145,0
1.40690690690691,-43.518606912669,25.9722298182434,25.6005923746667,8.08715770722213,-6.97645991388576,0
1.40840840840841,-43.5347744222366,25.9934939751701,25.5711005793169,8.08837443712416,-6.97633465800449,0
1.40990990990991,-43.5506685241343,26.0144160938264,25.5420775576184,8.089568911424,-6.9762104886428,0
1.41141141141141,-43.5662896362142,26.0349958514819,25.5135240312993,8.09074124532865,-6.976087450972,0
1.41291291291291,-43.5816381690634,26.0552329306521,25.485440710535,8.09189155205078,-6.97596558962923,0
